;FLAVOR:Marlin
;TIME:3805
;Filament used: 0.934383m
;Layer height: 0.15
;Extruders used: T0 0.4
;BCN3D_FIXES
;Generated with Cura_SteamEngine 2.1.5
T0
M190 S60
M104 S190
M109 S190
M82 ;absolute extrusion mode
;Sigma ProGen 2.2.0 (Build 14CJ1301)
;BCN3D Fixes applied
; - Fix Acceleration/Jerk commands
; - Z Hop At Layer Change

G21          ;metric values
G90          ;absolute positioning
M204 S600 ;set default acceleration
M205 X12.5 Y12.5 ;set default jerk
M107         ;start with the fan off
G28 X0 Y0    ;move X/Y to min endstops
G28 Z0       ;move Z to min endstops
G1 Z5 F200   ;safety Z axis movement
T1           ;switch to the right extruder
G92 E0       ;zero the extruded length

G92 E0       
G4 P2000     ;stabilize hotend's pressure
T0           ;switch to the left extruder
G92 E0       ;zero the extruded length
G1 F47.4 E15 ;extrude 15mm of feed stock
G92 E0
G4 P2000     ;stabilize hotend's pressure


M92 E510.9
M500
G4 P1
G4 P2
G4 P3

;LAYER_COUNT:21
;LAYER:0
M107
M204 S1175
M205 X9.38 Y9.38
G0 F3600 X132.488 Y183.135 Z0.2
M204 S470
;TYPE:SKIRT
G1 F900 X77.51 Y183.128 E0.6205
G1 X76.9 Y183.088 E0.6274
G1 X76.3 Y182.969 E0.6343
G1 X75.721 Y182.772 E0.64121
G1 X75.173 Y182.502 E0.6481
G1 X74.664 Y182.162 E0.65501
G1 X74.204 Y181.759 E0.66191
G1 X73.8 Y181.3 E0.66881
G1 X73.46 Y180.792 E0.67571
G1 X73.189 Y180.244 E0.68261
G1 X72.992 Y179.665 E0.68951
G1 X72.872 Y179.065 E0.69642
G1 X72.831 Y178.438 E0.70351
G1 X72.832 Y177.987 E0.7086
G1 X72.873 Y177.376 E0.71551
G1 X72.994 Y176.777 E0.72241
G1 X73.192 Y176.198 E0.72932
G1 X73.463 Y175.65 E0.73622
G1 X73.804 Y175.142 E0.74312
G1 X74.207 Y174.683 E0.75002
G1 X74.668 Y174.28 E0.75693
G1 X75.177 Y173.941 E0.76383
G1 X75.725 Y173.671 E0.77072
G1 X76.305 Y173.475 E0.77763
G1 X76.905 Y173.357 E0.78454
G1 X77.512 Y173.317 E0.7914
G1 X132.489 Y173.318 E1.41189
G1 X133.099 Y173.358 E1.41879
G1 X133.699 Y173.477 E1.42569
G1 X134.278 Y173.674 E1.4326
G1 X134.827 Y173.944 E1.4395
G1 X135.336 Y174.283 E1.4464
G1 X135.796 Y174.686 E1.45331
G1 X136.199 Y175.146 E1.46021
G1 X136.54 Y175.654 E1.46711
G1 X136.811 Y176.202 E1.47401
G1 X137.008 Y176.781 E1.48092
G1 X137.128 Y177.38 E1.48781
G1 X137.169 Y177.998 E1.4948
G1 X137.169 Y178.455 E1.49996
G1 X137.129 Y179.065 E1.50686
G1 X137.01 Y179.665 E1.51376
G1 X136.813 Y180.244 E1.52066
G1 X136.543 Y180.793 E1.52757
G1 X136.204 Y181.302 E1.53447
G1 X135.801 Y181.762 E1.54137
G1 X135.341 Y182.165 E1.54828
G1 X134.833 Y182.506 E1.55518
G1 X134.285 Y182.777 E1.56208
G1 X133.706 Y182.974 E1.56898
G1 X133.316 Y183.053 E1.57348
G0 F810 X133.107 Y183.094
G0 X132.488 Y183.135
M204 S1175
G0 F3600 X132.488 Y182.655
M204 S470
G1 F1050 E1.58288
G1 F900 X77.51 Y182.648 E2.20338
G1 X76.933 Y182.608 E2.2099
G1 X76.366 Y182.489 E2.21644
G1 X75.82 Y182.293 E2.22299
G1 X75.308 Y182.024 E2.22952
G1 X74.836 Y181.686 E2.23607
G1 X74.416 Y181.288 E2.2426
G1 X74.055 Y180.835 E2.24914
G1 X73.759 Y180.336 E2.25569
G1 X73.535 Y179.802 E2.26222
G1 X73.387 Y179.242 E2.26876
G1 X73.311 Y178.439 E2.27786
G1 X73.312 Y177.988 E2.28295
G1 X73.353 Y177.41 E2.28949
G1 X73.474 Y176.843 E2.29604
G1 X73.671 Y176.298 E2.30258
G1 X73.941 Y175.786 E2.30911
G1 X74.279 Y175.316 E2.31564
G1 X74.679 Y174.896 E2.32219
G1 X75.133 Y174.536 E2.32873
G1 X75.631 Y174.242 E2.33526
G1 X76.166 Y174.018 E2.3418
G1 X76.726 Y173.871 E2.34834
G1 X77.512 Y173.797 E2.35725
G1 X132.489 Y173.798 E2.97774
G1 X133.067 Y173.838 E2.98428
G1 X133.634 Y173.957 E2.99081
G1 X134.179 Y174.153 E2.99735
G1 X134.692 Y174.422 E3.00389
G1 X135.163 Y174.759 E3.01042
G1 X135.583 Y175.158 E3.01696
G1 X135.945 Y175.611 E3.02351
G1 X136.24 Y176.109 E3.03004
G1 X136.465 Y176.643 E3.03658
G1 X136.613 Y177.203 E3.04312
G1 X136.689 Y177.998 E3.05213
G1 X136.689 Y178.455 E3.05729
G1 X136.649 Y179.033 E3.06383
G1 X136.53 Y179.6 E3.07037
G1 X136.334 Y180.145 E3.0769
G1 X136.065 Y180.658 E3.08344
G1 X135.728 Y181.129 E3.08998
G1 X135.329 Y181.549 E3.09652
G1 X134.876 Y181.911 E3.10306
G1 X134.378 Y182.206 E3.10959
G1 X133.844 Y182.431 E3.11613
G1 X133.316 Y182.571 E3.1223
G0 F810 X133.284 Y182.579
G0 X132.488 Y182.655
M204 S1175
G0 F3600 X132.489 Y182.175
M204 S470
G1 F1050 E3.1317
G1 F900 X77.511 Y182.168 E3.7522
G1 X76.967 Y182.128 E3.75836
G1 X76.435 Y182.009 E3.76451
G1 X75.926 Y181.813 E3.77067
G1 X75.451 Y181.546 E3.77682
G1 X75.02 Y181.211 E3.78298
G1 X74.643 Y180.818 E3.78912
G1 X74.328 Y180.373 E3.79528
G1 X74.081 Y179.887 E3.80143
G1 X73.907 Y179.37 E3.80759
G1 X73.811 Y178.834 E3.81373
G1 X73.791 Y178.44 E3.81818
G1 X73.792 Y177.989 E3.82327
G1 X73.833 Y177.445 E3.82943
G1 X73.953 Y176.913 E3.83559
G1 X74.15 Y176.405 E3.84174
G1 X74.419 Y175.931 E3.84789
G1 X74.754 Y175.501 E3.85404
G1 X75.148 Y175.124 E3.86019
G1 X75.594 Y174.81 E3.86635
G1 X76.08 Y174.564 E3.8725
G1 X76.597 Y174.391 E3.87865
G1 X77.134 Y174.296 E3.88481
G1 X77.512 Y174.277 E3.88908
G1 X132.489 Y174.278 E4.50957
G1 X133.033 Y174.318 E4.51572
G1 X133.565 Y174.437 E4.52187
G1 X134.074 Y174.632 E4.52803
G1 X134.549 Y174.9 E4.53418
G1 X134.979 Y175.234 E4.54033
G1 X135.356 Y175.628 E4.54648
G1 X135.672 Y176.073 E4.55264
G1 X135.919 Y176.558 E4.55878
G1 X136.093 Y177.075 E4.56494
G1 X136.189 Y177.612 E4.5711
G1 X136.209 Y177.998 E4.57546
G1 X136.209 Y178.455 E4.58062
G1 X136.169 Y178.999 E4.58677
G1 X136.05 Y179.531 E4.59293
G1 X135.855 Y180.04 E4.59908
G1 X135.587 Y180.515 E4.60523
G1 X135.253 Y180.945 E4.61138
G1 X134.859 Y181.322 E4.61753
G1 X134.414 Y181.638 E4.62369
G1 X133.929 Y181.885 E4.62984
G1 X133.412 Y182.059 E4.63599
G1 X133.315 Y182.077 E4.63711
G0 F810 X132.875 Y182.155
G0 X132.489 Y182.175
M204 S1175
G0 F3600 X132.489 Y181.695
M204 S470
G1 F1050 E4.64651
G1 F900 X77.511 Y181.688 E5.26701
G1 X77.003 Y181.648 E5.27276
G1 X76.509 Y181.529 E5.2785
G1 X76.039 Y181.334 E5.28424
G1 X75.605 Y181.068 E5.28998
G1 X75.219 Y180.738 E5.29571
G1 X74.888 Y180.351 E5.30146
G1 X74.623 Y179.917 E5.3072
G1 X74.429 Y179.446 E5.31295
G1 X74.31 Y178.952 E5.31869
G1 X74.271 Y178.441 E5.32447
G1 X74.272 Y177.99 E5.32956
G1 X74.313 Y177.483 E5.3353
G1 X74.433 Y176.988 E5.34105
G1 X74.629 Y176.519 E5.34679
G1 X74.896 Y176.086 E5.35253
G1 X75.227 Y175.7 E5.35827
G1 X75.615 Y175.37 E5.36402
G1 X76.049 Y175.106 E5.36975
G1 X76.52 Y174.913 E5.37549
G1 X77.015 Y174.795 E5.38124
G1 X77.512 Y174.757 E5.38686
G1 X132.489 Y174.758 E6.00735
G1 X132.996 Y174.798 E6.01309
G1 X133.491 Y174.917 E6.01884
G1 X133.961 Y175.112 E6.02458
G1 X134.394 Y175.378 E6.03032
G1 X134.781 Y175.708 E6.03606
G1 X135.111 Y176.095 E6.0418
G1 X135.377 Y176.529 E6.04754
G1 X135.571 Y176.999 E6.05328
G1 X135.69 Y177.494 E6.05903
G1 X135.729 Y177.998 E6.06473
G1 X135.729 Y178.455 E6.06989
G1 X135.689 Y178.962 E6.07563
G1 X135.57 Y179.457 E6.08137
G1 X135.375 Y179.927 E6.08712
G1 X135.109 Y180.36 E6.09285
G1 X134.779 Y180.747 E6.09859
G1 X134.392 Y181.077 E6.10433
G1 X133.958 Y181.343 E6.11008
G1 X133.488 Y181.537 E6.11582
G1 X133.311 Y181.58 E6.11787
G0 F810 X132.993 Y181.656
G0 X132.489 Y181.695
M204 S1175
G1 F2100 E-0.38213
G0 F3600 X132.284 Y178.25
G0 X132.228 Y178.194
G0 X132.298 Y178.264
M204 S470
;TYPE:WALL-OUTER
G1 F1050 E6.12727
G1 F900 X77.702 Y178.264 E6.74346
G1 X77.702 Y178.188 E6.74432
G1 X132.298 Y178.188 E6.84188
G1 X132.298 Y178.264 E6.84274
M204 S1175
G0 F3600 X132.098 Y178.264
G0 X132.298 Y178.264
;TIME_ELAPSED:48.200880
;LAYER:1
G91
G1 F2100 E-6.5
G1 F12000 Z0.45 ;z hop at layer change
G90
M140 S60
M106 S51
M204 S1338
M205 X10.94 Y10.94
G0 F7800 X132.298 Y178.264 Z0.35
M204 S405
M205 X7.03 Y7.03
;TYPE:WALL-OUTER
G91
G1 F2100 E6.5
G90
G1 F900 X77.702 Y178.264 E7.35623
G1 X77.702 Y177.928 E7.35939
G1 X132.298 Y177.928 E7.79072
G1 X132.298 Y178.264 E7.79388
M204 S1338
M205 X10.94 Y10.94
G0 F7800 X132.098 Y178.264
G0 X132.298 Y178.264
;TIME_ELAPSED:55.699834
;LAYER:2
G91
G1 F2100 E-6.5
G1 F12000 Z0.45 ;z hop at layer change
G90
M106 S102
M204 S1500
M205 X12.5 Y12.5
G0 F12000 X132.298 Y178.264 Z0.5
M204 S340
M205 X4.69 Y4.69
;TYPE:WALL-OUTER
G91
G1 F2100 E6.5
G90
G1 F900 X77.702 Y178.264 E8.30738
G1 X77.702 Y177.668 E8.31298
G1 X131.894 Y177.668 E8.82267
G0 F810 X132.298 Y177.668
G0 X132.298 Y178.264
M204 S1500
M205 X12.5 Y12.5
G0 F12000 X132.098 Y178.264
G0 X131.861 Y177.964
G1 F1050 E8.83208
G1 F1950 X131.578 Y177.964 E8.83441
G1 X131.295 Y177.964 E8.83675
G1 X131.012 Y177.964 E8.83908
G1 X130.729 Y177.964 E8.84142
G1 X130.447 Y177.964 E8.84375
G1 X130.164 Y177.964 E8.84608
G1 X129.881 Y177.964 E8.84842
G1 X129.598 Y177.964 E8.85075
G1 X129.315 Y177.964 E8.85309
G1 X129.032 Y177.964 E8.85543
G1 X128.75 Y177.964 E8.85775
G1 X128.467 Y177.964 E8.86009
G1 X128.184 Y177.964 E8.86242
G1 X127.901 Y177.964 E8.86476
G1 X127.618 Y177.964 E8.8671
G1 X127.335 Y177.964 E8.86943
G1 X127.053 Y177.964 E8.87176
G1 X126.77 Y177.964 E8.87409
G1 X126.487 Y177.964 E8.87643
G1 X126.204 Y177.964 E8.87876
G1 X125.921 Y177.964 E8.8811
G1 X125.638 Y177.964 E8.88344
G1 X125.355 Y177.964 E8.88577
G1 X125.073 Y177.964 E8.8881
G1 X124.79 Y177.964 E8.89043
G1 X124.507 Y177.964 E8.89277
G1 X124.224 Y177.964 E8.89511
G1 X123.941 Y177.964 E8.89744
G1 X123.658 Y177.964 E8.89978
G1 X123.376 Y177.964 E8.9021
G1 X123.093 Y177.964 E8.90444
G1 X122.81 Y177.964 E8.90678
G1 X122.527 Y177.964 E8.90911
G1 X122.244 Y177.964 E8.91145
G1 X121.961 Y177.964 E8.91378
G1 X121.679 Y177.964 E8.91611
G1 X121.396 Y177.964 E8.91845
G1 X121.113 Y177.964 E8.92078
G1 X120.83 Y177.964 E8.92312
G1 X120.547 Y177.964 E8.92545
G1 X120.264 Y177.964 E8.92779
G1 X119.981 Y177.964 E8.93012
G1 X119.699 Y177.964 E8.93245
G1 X119.416 Y177.964 E8.93479
G1 X119.133 Y177.964 E8.93712
G1 X118.85 Y177.964 E8.93946
G1 X118.567 Y177.964 E8.94179
G1 X118.284 Y177.964 E8.94413
G1 X118.002 Y177.964 E8.94646
G1 X117.719 Y177.964 E8.94879
G1 X117.436 Y177.964 E8.95113
G1 X117.153 Y177.964 E8.95346
G1 X116.87 Y177.964 E8.9558
G1 X116.587 Y177.964 E8.95814
G1 X116.304 Y177.964 E8.96047
G1 X116.022 Y177.964 E8.9628
G1 X115.739 Y177.964 E8.96513
G1 X115.456 Y177.964 E8.96747
G1 X115.173 Y177.964 E8.96981
G1 X114.89 Y177.964 E8.97214
G1 X114.607 Y177.964 E8.97448
G1 X114.325 Y177.964 E8.9768
G1 X114.042 Y177.964 E8.97914
G1 X113.759 Y177.964 E8.98148
G1 X113.476 Y177.964 E8.98381
G1 X113.193 Y177.964 E8.98615
G1 X112.91 Y177.964 E8.98848
G1 X112.628 Y177.964 E8.99081
G1 X112.345 Y177.964 E8.99315
G1 X112.062 Y177.964 E8.99548
G1 X111.779 Y177.964 E8.99782
G1 X111.496 Y177.964 E9.00015
G1 X111.213 Y177.964 E9.00249
G1 X110.93 Y177.964 E9.00482
G1 X110.648 Y177.964 E9.00715
G1 X110.365 Y177.964 E9.00949
G1 X110.082 Y177.964 E9.01182
G1 X109.799 Y177.964 E9.01416
G1 X109.516 Y177.964 E9.01649
G1 X109.233 Y177.964 E9.01883
G1 X108.951 Y177.964 E9.02116
G1 X108.668 Y177.964 E9.02349
G1 X108.385 Y177.964 E9.02583
G1 X108.102 Y177.964 E9.02816
G1 X107.819 Y177.964 E9.0305
G1 X107.536 Y177.964 E9.03283
G1 X107.254 Y177.964 E9.03516
G1 X106.971 Y177.964 E9.0375
G1 X106.688 Y177.964 E9.03983
G1 X106.405 Y177.964 E9.04217
G1 X106.122 Y177.964 E9.0445
G1 X105.839 Y177.964 E9.04684
G1 X105.556 Y177.964 E9.04918
G1 X105.274 Y177.964 E9.0515
G1 X104.991 Y177.964 E9.05384
G1 X104.708 Y177.964 E9.05617
G1 X104.425 Y177.964 E9.05851
G1 X104.142 Y177.964 E9.06085
G1 X103.859 Y177.964 E9.06318
G1 X103.577 Y177.964 E9.06551
G1 X103.294 Y177.964 E9.06784
G1 X103.011 Y177.964 E9.07018
G1 X102.728 Y177.964 E9.07252
G1 X102.445 Y177.964 E9.07485
G1 X102.162 Y177.964 E9.07719
G1 X101.88 Y177.964 E9.07951
G1 X101.597 Y177.964 E9.08185
G1 X101.314 Y177.964 E9.08419
G1 X101.031 Y177.964 E9.08652
G1 X100.748 Y177.964 E9.08886
G1 X100.465 Y177.964 E9.09119
G1 X100.182 Y177.964 E9.09353
G1 X99.9 Y177.964 E9.09586
G1 X99.617 Y177.964 E9.09819
G1 X99.334 Y177.964 E9.10053
G1 X99.051 Y177.964 E9.10286
G1 X98.768 Y177.964 E9.1052
G1 X98.485 Y177.964 E9.10753
G1 X98.203 Y177.964 E9.10986
G1 X97.92 Y177.964 E9.1122
G1 X97.637 Y177.964 E9.11453
G1 X97.354 Y177.964 E9.11687
G1 X97.071 Y177.964 E9.1192
G1 X96.788 Y177.964 E9.12154
G1 X96.506 Y177.964 E9.12387
G1 X96.223 Y177.964 E9.1262
G1 X95.94 Y177.964 E9.12854
G1 X95.657 Y177.964 E9.13087
G1 X95.374 Y177.964 E9.13321
G1 X95.091 Y177.964 E9.13554
G1 X94.808 Y177.964 E9.13788
G1 X94.526 Y177.964 E9.14021
G1 X94.243 Y177.964 E9.14254
G1 X93.96 Y177.964 E9.14488
G1 X93.677 Y177.964 E9.14721
G1 X93.394 Y177.964 E9.14955
G1 X93.111 Y177.964 E9.15189
G1 X92.829 Y177.964 E9.15421
G1 X92.546 Y177.964 E9.15655
G1 X92.263 Y177.964 E9.15888
G1 X91.98 Y177.964 E9.16122
G1 X91.697 Y177.964 E9.16356
G1 X91.414 Y177.964 E9.16589
G1 X91.131 Y177.964 E9.16823
G1 X90.849 Y177.964 E9.17055
G1 X90.566 Y177.964 E9.17289
G1 X90.283 Y177.964 E9.17523
G1 X90 Y177.964 E9.17756
G1 X89.717 Y177.964 E9.1799
G1 X89.434 Y177.964 E9.18223
G1 X89.152 Y177.964 E9.18456
G1 X88.869 Y177.964 E9.1869
G1 X88.586 Y177.964 E9.18923
G1 X88.303 Y177.964 E9.19157
G1 X88.02 Y177.964 E9.1939
G1 X87.737 Y177.964 E9.19624
G1 X87.455 Y177.964 E9.19857
G1 X87.172 Y177.964 E9.2009
G1 X86.889 Y177.964 E9.20324
G1 X86.606 Y177.964 E9.20557
G1 X86.323 Y177.964 E9.20791
G1 X86.04 Y177.964 E9.21024
G1 X85.757 Y177.964 E9.21258
G1 X85.475 Y177.964 E9.21491
G1 X85.192 Y177.964 E9.21724
G1 X84.909 Y177.964 E9.21958
G1 X84.626 Y177.964 E9.22191
G1 X84.343 Y177.964 E9.22425
G1 X84.06 Y177.964 E9.22658
G1 X83.778 Y177.964 E9.22891
G1 X83.495 Y177.964 E9.23125
G1 X83.212 Y177.964 E9.23358
G1 X82.929 Y177.964 E9.23592
G1 X82.646 Y177.964 E9.23825
G1 X82.363 Y177.964 E9.24059
G1 X82.081 Y177.964 E9.24292
G1 X81.798 Y177.964 E9.24525
G1 X81.515 Y177.964 E9.24759
G1 X81.232 Y177.964 E9.24992
G1 X80.949 Y177.964 E9.25226
G1 X80.666 Y177.964 E9.2546
G1 X80.383 Y177.964 E9.25693
G1 X80.101 Y177.964 E9.25926
G1 X79.818 Y177.964 E9.26159
G1 X79.535 Y177.964 E9.26393
G1 X79.252 Y177.964 E9.26627
G1 X78.969 Y177.964 E9.2686
G1 X78.686 Y177.964 E9.27094
G1 X78.404 Y177.964 E9.27326
G1 X78.121 Y177.964 E9.2756
G1 X77.919 Y178.045 E9.2774
G0 F12000 X78.014 Y178.14
G0 X131.968 Y177.789
M204 S470
M205 X9.38 Y9.38
;TYPE:SKIN
G1 F1950 X132.176 Y177.997 E9.27878
M204 S1500
M205 X12.5 Y12.5
G0 F12000 X131.948 Y177.914
G0 X132.298 Y178.264
;TIME_ELAPSED:65.427006
;LAYER:3
G91
G1 F2100 E-6.5
G1 F12000 Z0.45 ;z hop at layer change
G90
M106 S153
G0 X132.298 Y178.264 Z0.65
M204 S340
M205 X4.69 Y4.69
;TYPE:WALL-OUTER
G91
G1 F2100 E6.5
G90
G1 F900 X77.702 Y178.264 E9.79228
G1 X77.702 Y177.408 E9.80033
G1 X132.154 Y177.408 E10.31246
G0 F810 X132.298 Y177.408
G0 X132.298 Y178.264
M204 S1500
M205 X12.5 Y12.5
G0 F12000 X132.098 Y178.264
G0 X131.923 Y177.889
M204 S470
M205 X9.38 Y9.38
;TYPE:WALL-INNER
G1 F1050 E10.32187
G1 F1950 X78.077 Y177.889 E10.765
G1 X78.077 Y177.783 E10.76587
G1 X131.923 Y177.783 E10.90008
G1 X131.923 Y177.889 E10.90095
M204 S1500
M205 X12.5 Y12.5
G0 F12000 X132.298 Y178.264
;TIME_ELAPSED:76.503601
;LAYER:4
G91
G1 F2100 E-6.5
G1 F12000 Z0.45 ;z hop at layer change
G90
M106 S204
G0 X132.298 Y178.264 Z0.8
M204 S340
M205 X4.69 Y4.69
;TYPE:WALL-OUTER
G91
G1 F2100 E6.5
G90
G1 F900 X77.702 Y178.264 E11.41444
G1 X77.702 Y177.148 E11.42494
G1 X132.298 Y177.148 E11.93843
G1 X132.298 Y177.264 E11.93952
G0 F810 X132.298 Y178.264
M204 S1500
M205 X12.5 Y12.5
G0 F12000 X132.098 Y178.264
G0 X131.923 Y177.889
M204 S470
M205 X9.38 Y9.38
;TYPE:WALL-INNER
G1 F1050 E11.94892
G1 F1950 X78.077 Y177.889 E12.39206
G1 X78.077 Y177.523 E12.39507
G1 X131.147 Y177.523 E12.83181
G0 F1755 X131.923 Y177.523
G0 X131.923 Y177.889
M204 S1500
M205 X12.5 Y12.5
G0 F12000 X131.676 Y177.873
G1 F2100 E6.33181
G0 F12000 X131.676 Y177.789
G0 X109.246 Y177.543
G0 X109.246 Y170.79
G0 X109.246 Y129.926
G0 X116.147 Y129.914
G0 X116.156 Y127.06
G0 X111.585 Y121.244
G0 X109.246 Y122.985
G0 X109.538 Y123.358
M204 S340
M205 X4.69 Y4.69
;TYPE:WALL-OUTER
G1 F1050 E12.84121
G1 F900 X109.668 Y123.516 E12.84314
G1 X111.464 Y125.697 E12.86971
G1 X112.092 Y126.418 E12.8787
G1 X112.184 Y126.524 E12.88002
G1 X112.464 Y126.812 E12.8838
G1 X112.174 Y126.802 E12.88401
G1 X112.033 Y126.797 E12.88515
G1 X111.523 Y126.777 E12.88995
G1 X109.786 Y126.732 E12.90629
G1 X95.699 Y126.731 E13.03878
G1 X95.499 Y126.731 E13.04067
G1 X95.499 Y126.931 E13.04188
