;FLAVOR:Marlin
;TIME:290
;Filament used: 0.123397m
;Layer height: 0.25
;Extruders used: T0 0.6
;BCN3D_FIXES
;Generated with Cura_SteamEngine 2.1.5
T0
M190 S60
M104 S205
M109 S205
M82 ;absolute extrusion mode
;Sigma ProGen 2.2.0 (Build 14CJ1301)
;BCN3D Fixes applied
; - Fix Acceleration/Jerk commands
; - Z Hop At Layer Change

G21          ;metric values
G90          ;absolute positioning
M204 S600 ;set default acceleration
M205 X12.5 Y12.5 ;set default jerk
M107         ;start with the fan off
G28 X0 Y0    ;move X/Y to min endstops
G28 Z0       ;move Z to min endstops
G1 Z5 F200   ;safety Z axis movement
T1           ;switch to the right extruder
G92 E0       ;zero the extruded length

G92 E0       
G4 P2000     ;stabilize hotend's pressure
T0           ;switch to the left extruder
G92 E0       ;zero the extruded length
G1 F106.2 E15 ;extrude 15mm of feed stock
G92 E0
G4 P2000     ;stabilize hotend's pressure


M92 E510.9
M500
G4 P1
G4 P2
G4 P3

;LAYER_COUNT:40
;LAYER:0
M107
M204 S2038
M205 X9.38 Y9.38
G0 F5454 X37.676 Y165.517 Z0.3
M204 S815
;TYPE:SKIRT
G1 F900 X36.94 Y165.878 E0.02776
G1 X36.045 Y166.205 E0.06002
G1 X35.029 Y166.512 E0.09596
G1 X34.234 Y166.71 E0.1237
G1 X33.017 Y166.861 E0.16522
G1 X31.632 Y166.93 E0.21217
G1 X30.812 Y166.93 E0.23994
G1 X29.878 Y166.833 E0.27173
G1 X29.214 Y166.726 E0.2945
G1 X28.412 Y166.556 E0.32226
G1 X27.62 Y166.306 E0.35038
G1 X26.4 Y165.852 E0.39446
G1 X25.647 Y165.529 E0.4222
G1 X24.929 Y165.134 E0.44995
G1 X24.334 Y164.732 E0.47426
G1 X23.131 Y163.842 E0.52493
G1 X22.497 Y163.323 E0.55267
G1 X21.916 Y162.745 E0.58042
G1 X21.624 Y162.405 E0.59559
G1 X21.091 Y161.753 E0.62411
G1 X20.422 Y160.81 E0.66326
G1 X20.072 Y160.236 E0.68602
G1 X19.513 Y159.147 E0.72746
G1 X19.174 Y158.349 E0.75682
G1 X18.89 Y157.58 E0.78458
G1 X18.672 Y156.731 E0.81426
G1 X18.466 Y155.713 E0.84942
G1 X18.343 Y154.903 E0.87716
G1 X18.3 Y153.932 E0.91007
G1 X18.315 Y152.832 E0.94732
G1 X18.366 Y152.015 E0.97504
G1 X18.463 Y151.372 E0.99706
G1 X18.581 Y150.754 E1.01836
G1 X18.774 Y149.957 E1.04612
G1 X19.051 Y149.164 E1.07457
G1 X19.533 Y147.979 E1.11788
G1 X19.878 Y147.236 E1.14562
G1 X20.295 Y146.53 E1.17338
G1 X20.68 Y145.991 E1.19581
G1 X21.64 Y144.755 E1.2488
G1 X22.174 Y144.133 E1.27655
G1 X22.765 Y143.566 E1.30429
G1 X23.439 Y143.039 E1.33325
G1 X24.53 Y142.271 E1.37843
G1 X25.222 Y141.833 E1.40616
G1 X26.1 Y141.4 E1.43931
G1 X26.816 Y141.098 E1.46562
G1 X27.586 Y140.817 E1.49337
G1 X28.165 Y140.66 E1.51368
G1 X29.074 Y140.447 E1.54529
G1 X29.88 Y140.299 E1.57304
G1 X31.054 Y140.225 E1.61287
G1 X32.489 Y140.236 E1.66146
G1 X33.308 Y140.282 E1.68923
G1 X34.117 Y140.408 E1.71696
G1 X34.593 Y140.521 E1.73352
G1 X35.626 Y140.797 E1.76972
G1 X36.407 Y141.047 E1.79749
G1 X37.159 Y141.371 E1.82521
G1 X37.529 Y141.565 E1.83936
G1 X38.74 Y142.236 E1.88624
G1 X39.437 Y142.667 E1.91398
G1 X40.178 Y143.242 E1.94574
G1 X40.704 Y143.699 E1.96933
G1 X41.296 Y144.266 E1.99709
G1 X41.687 Y144.709 E2.01709
G1 X42.229 Y145.369 E2.04601
G1 X42.91 Y146.328 E2.08584
G1 X43.258 Y146.899 E2.10848
G1 X43.65 Y147.619 E2.13623
G1 X43.908 Y148.211 E2.1581
G1 X44.298 Y149.208 E2.19435
G1 X44.559 Y149.985 E2.2221
G1 X44.786 Y151.047 E2.25887
G1 X44.967 Y152.279 E2.30103
G1 X45.046 Y153.095 E2.32879
G1 X45.022 Y154.261 E2.36828
G1 X44.928 Y155.295 E2.40343
G1 X44.814 Y156.106 E2.43116
G1 X44.595 Y156.989 E2.46197
G1 X44.301 Y157.951 E2.49603
G1 X44.024 Y158.722 E2.52377
G1 X43.672 Y159.463 E2.55154
G1 X43.468 Y159.823 E2.56555
G1 X42.724 Y161.061 E2.61446
G1 X42.268 Y161.742 E2.64221
G1 X41.748 Y162.375 E2.66994
G1 X41.227 Y162.901 E2.69501
G1 X40.218 Y163.834 E2.74154
G1 X39.59 Y164.361 E2.7693
G1 X38.576 Y165.02 E2.81025
G1 X38.161 Y165.249 E2.8263
G0 F810 X37.676 Y165.517
M204 S2038
G0 F5454 X37.328 Y164.887
M204 S815
G1 F1050 E2.84509
G1 F900 X36.623 Y165.23 E2.87163
G1 X35.836 Y165.516 E2.89999
G1 X34.82 Y165.823 E2.93592
G1 X34.06 Y166.011 E2.96243
G1 X32.981 Y166.141 E2.99923
G1 X31.596 Y166.21 E3.04618
G1 X30.813 Y166.21 E3.07269
G1 X29.992 Y166.122 E3.10065
G1 X29.328 Y166.015 E3.12342
G1 X28.562 Y165.851 E3.14995
G1 X27.871 Y165.631 E3.1745
G1 X26.651 Y165.177 E3.21858
G1 X25.932 Y164.866 E3.2451
G1 X25.248 Y164.484 E3.27163
G1 X24.762 Y164.153 E3.29154
G1 X23.559 Y163.263 E3.34221
G1 X22.954 Y162.765 E3.36874
G1 X22.181 Y161.95 E3.40677
G1 X21.648 Y161.298 E3.43528
G1 X21.037 Y160.435 E3.47109
G1 X20.687 Y159.861 E3.49385
G1 X20.175 Y158.866 E3.53174
G1 X19.836 Y158.068 E3.56109
G1 X19.567 Y157.332 E3.58763
G1 X19.378 Y156.588 E3.61362
G1 X19.172 Y155.57 E3.64879
G1 X19.056 Y154.795 E3.67532
G1 X19.02 Y153.942 E3.70423
G1 X19.035 Y152.842 E3.74147
G1 X19.085 Y152.06 E3.76801
G1 X19.17 Y151.507 E3.78695
G1 X19.288 Y150.889 E3.80825
G1 X19.474 Y150.127 E3.83481
G1 X19.718 Y149.435 E3.85966
G1 X20.2 Y148.25 E3.90297
G1 X20.532 Y147.541 E3.92948
G1 X20.934 Y146.868 E3.95602
G1 X21.249 Y146.433 E3.97421
G1 X22.209 Y145.197 E4.0272
G1 X22.72 Y144.603 E4.05373
G1 X23.29 Y144.065 E4.08026
G1 X23.853 Y143.628 E4.1044
G1 X24.944 Y142.86 E4.14957
G1 X25.607 Y142.442 E4.17611
G1 X26.38 Y142.064 E4.20524
G1 X27.096 Y141.762 E4.23155
G1 X27.833 Y141.494 E4.25811
G1 X28.329 Y141.361 E4.27549
G1 X29.238 Y141.148 E4.30711
G1 X30.009 Y141.008 E4.33364
G1 X31.049 Y140.945 E4.36892
G1 X32.484 Y140.956 E4.41751
G1 X33.266 Y141.002 E4.44403
G1 X34.407 Y141.216 E4.48334
G1 X35.44 Y141.492 E4.51954
G1 X36.186 Y141.733 E4.54608
G1 X37.18 Y142.194 E4.58318
G1 X38.391 Y142.865 E4.63006
G1 X39.056 Y143.28 E4.6566
G1 X39.706 Y143.785 E4.68447
G1 X40.232 Y144.242 E4.70806
G1 X40.797 Y144.786 E4.73462
G1 X41.13 Y145.166 E4.75173
G1 X41.672 Y145.826 E4.78064
G1 X42.295 Y146.703 E4.81707
G1 X42.643 Y147.274 E4.83971
G1 X43.016 Y147.963 E4.86624
G1 X43.237 Y148.473 E4.88506
G1 X43.627 Y149.47 E4.9213
G1 X43.875 Y150.214 E4.94786
G1 X44.073 Y151.152 E4.98032
G1 X44.254 Y152.384 E5.02248
G1 X44.329 Y153.164 E5.04901
G1 X44.304 Y154.195 E5.08393
G1 X44.21 Y155.229 E5.11909
G1 X44.1 Y156.005 E5.14562
G1 X43.907 Y156.779 E5.17263
G1 X43.613 Y157.741 E5.20669
G1 X43.346 Y158.477 E5.2332
G1 X42.851 Y159.452 E5.27022
G1 X42.107 Y160.69 E5.31913
G1 X41.669 Y161.34 E5.34567
G1 X41.168 Y161.942 E5.37219
G1 X40.738 Y162.373 E5.3928
G1 X39.729 Y163.306 E5.43933
G1 X39.127 Y163.808 E5.46587
G1 X38.228 Y164.39 E5.50213
G1 X37.813 Y164.619 E5.51818
G0 F810 X37.328 Y164.887
M204 S2038
G0 F5454 X36.98 Y164.257
M204 S815
G1 F1050 E5.53697
G1 F900 X36.308 Y164.582 E5.56225
G1 X35.628 Y164.826 E5.58671
G1 X34.612 Y165.133 E5.62265
G1 X33.888 Y165.311 E5.64789
G1 X32.945 Y165.422 E5.68004
G1 X31.56 Y165.491 E5.72699
G1 X30.814 Y165.489 E5.75225
G1 X30.107 Y165.411 E5.77633
G1 X29.443 Y165.304 E5.79911
G1 X28.714 Y165.146 E5.82436
G1 X28.123 Y164.956 E5.84538
G1 X26.903 Y164.502 E5.88946
G1 X26.218 Y164.205 E5.91474
G1 X25.57 Y163.836 E5.93999
G1 X25.191 Y163.574 E5.95559
G1 X23.988 Y162.684 E6.00625
G1 X23.413 Y162.209 E6.03151
G1 X22.738 Y161.494 E6.0648
G1 X22.205 Y160.842 E6.09331
G1 X21.652 Y160.06 E6.12574
G1 X21.302 Y159.486 E6.14851
G1 X20.838 Y158.584 E6.18285
G1 X20.499 Y157.786 E6.21221
G1 X20.245 Y157.085 E6.23745
G1 X20.083 Y156.445 E6.25981
G1 X19.877 Y155.427 E6.29497
G1 X19.769 Y154.689 E6.32023
G1 X19.74 Y153.952 E6.3452
G1 X19.755 Y152.852 E6.38245
G1 X19.805 Y152.108 E6.4077
G1 X19.878 Y151.642 E6.42367
G1 X19.996 Y151.024 E6.44497
G1 X20.174 Y150.3 E6.47021
G1 X20.385 Y149.707 E6.49153
G1 X20.867 Y148.522 E6.53484
G1 X21.185 Y147.847 E6.56011
G1 X21.573 Y147.21 E6.58536
G1 X21.817 Y146.875 E6.59939
G1 X22.777 Y145.639 E6.65238
G1 X23.266 Y145.075 E6.67766
G1 X23.812 Y144.567 E6.70291
G1 X24.268 Y144.217 E6.72237
G1 X25.359 Y143.449 E6.76755
G1 X25.991 Y143.053 E6.7928
G1 X26.66 Y142.727 E6.818
G1 X27.376 Y142.425 E6.84431
G1 X28.078 Y142.172 E6.86957
G1 X28.493 Y142.062 E6.88411
G1 X29.402 Y141.849 E6.91572
G1 X30.136 Y141.718 E6.94097
G1 X31.043 Y141.665 E6.97173
G1 X32.478 Y141.676 E7.02032
G1 X33.223 Y141.722 E7.04559
G1 X34.222 Y141.912 E7.08002
G1 X35.255 Y142.188 E7.11623
G1 X35.964 Y142.419 E7.14147
G1 X36.831 Y142.824 E7.17387
G1 X38.042 Y143.495 E7.22075
G1 X38.674 Y143.891 E7.246
G1 X39.234 Y144.329 E7.27008
G1 X39.76 Y144.786 E7.29367
G1 X40.296 Y145.305 E7.31893
G1 X40.574 Y145.623 E7.33323
G1 X41.116 Y146.283 E7.36215
G1 X41.68 Y147.078 E7.39515
G1 X42.028 Y147.649 E7.41779
G1 X42.382 Y148.306 E7.44306
G1 X42.567 Y148.736 E7.45891
G1 X42.957 Y149.733 E7.49516
G1 X43.191 Y150.441 E7.52041
G1 X43.361 Y151.256 E7.5486
G1 X43.542 Y152.488 E7.59076
G1 X43.611 Y153.231 E7.61603
G1 X43.587 Y154.13 E7.64648
G1 X43.493 Y155.164 E7.68163
G1 X43.386 Y155.902 E7.70688
G1 X43.218 Y156.568 E7.73014
G1 X42.924 Y157.53 E7.76419
G1 X42.668 Y158.231 E7.78946
G1 X42.234 Y159.081 E7.82178
G1 X41.49 Y160.319 E7.87068
G1 X41.072 Y160.937 E7.89594
G1 X40.59 Y161.507 E7.92122
G1 X40.249 Y161.844 E7.93745
G1 X39.24 Y162.777 E7.98398
G1 X38.666 Y163.253 E8.00923
G1 X37.88 Y163.76 E8.0409
G1 X37.465 Y163.989 E8.05695
G0 F810 X36.98 Y164.257
M204 S2038
G0 F5454 X36.631 Y163.626
M204 S815
G1 F1050 E8.07574
G1 F900 X35.995 Y163.932 E8.09964
G1 X35.42 Y164.137 E8.12031
G1 X34.404 Y164.444 E8.15624
G1 X33.717 Y164.61 E8.18018
G1 X32.909 Y164.703 E8.20771
G1 X31.524 Y164.772 E8.25467
G1 X30.818 Y164.767 E8.27857
G1 X30.221 Y164.701 E8.29891
G1 X29.557 Y164.594 E8.32168
G1 X28.867 Y164.442 E8.3456
G1 X28.374 Y164.281 E8.36316
G1 X27.154 Y163.827 E8.40724
G1 X26.507 Y163.544 E8.43115
G1 X25.619 Y162.995 E8.4665
G1 X24.416 Y162.105 E8.51717
G1 X23.873 Y161.654 E8.54107
G1 X23.296 Y161.038 E8.56964
G1 X22.763 Y160.386 E8.59816
G1 X22.266 Y159.686 E8.62723
G1 X21.916 Y159.112 E8.64999
G1 X21.501 Y158.303 E8.68078
G1 X21.162 Y157.505 E8.71013
G1 X20.923 Y156.84 E8.73406
G1 X20.789 Y156.303 E8.7528
G1 X20.583 Y155.285 E8.78796
G1 X20.482 Y154.586 E8.81188
G1 X20.46 Y153.962 E8.83302
G1 X20.475 Y152.862 E8.87027
G1 X20.524 Y152.157 E8.8942
G1 X20.585 Y151.777 E8.90723
G1 X20.703 Y151.159 E8.92853
G1 X20.874 Y150.474 E8.95244
G1 X21.052 Y149.978 E8.97028
G1 X21.534 Y148.793 E9.01359
G1 X21.837 Y148.155 E9.03751
G1 X22.386 Y147.316 E9.07146
G1 X23.346 Y146.08 E9.12445
G1 X23.81 Y145.548 E9.14835
G1 X24.331 Y145.071 E9.17227
G1 X24.682 Y144.805 E9.18718
G1 X25.773 Y144.037 E9.23235
G1 X26.373 Y143.664 E9.25627
G1 X26.94 Y143.391 E9.27758
G1 X27.656 Y143.089 E9.30389
G1 X28.657 Y142.763 E9.33954
G1 X29.566 Y142.55 E9.37115
G1 X30.262 Y142.428 E9.39507
G1 X31.038 Y142.385 E9.42139
G1 X32.473 Y142.396 E9.46998
G1 X33.178 Y142.442 E9.4939
G1 X34.036 Y142.607 E9.52348
G1 X35.069 Y142.883 E9.55969
G1 X35.74 Y143.104 E9.58361
G1 X36.482 Y143.454 E9.61138
G1 X37.693 Y144.125 E9.65826
G1 X38.291 Y144.502 E9.6822
G1 X38.762 Y144.873 E9.7025
G1 X39.288 Y145.33 E9.72609
G1 X40.017 Y146.08 E9.7615
G1 X40.559 Y146.74 E9.79042
G1 X41.065 Y147.453 E9.82002
G1 X41.413 Y148.024 E9.84266
G1 X41.746 Y148.646 E9.86655
G1 X41.896 Y148.998 E9.87951
G1 X42.286 Y149.995 E9.91576
G1 X42.506 Y150.666 E9.93967
G1 X42.649 Y151.361 E9.96369
G1 X42.83 Y152.593 E10.00585
G1 X42.893 Y153.296 E10.02975
G1 X42.87 Y154.065 E10.0558
G1 X42.776 Y155.099 E10.09095
G1 X42.673 Y155.798 E10.11488
G1 X42.53 Y156.358 E10.13445
G1 X42.236 Y157.32 E10.16851
G1 X41.991 Y157.982 E10.19241
G1 X41.616 Y158.71 E10.22013
G1 X40.872 Y159.948 E10.26904
G1 X40.475 Y160.532 E10.29295
G1 X40.014 Y161.067 E10.31686
G1 X39.76 Y161.316 E10.3289
G1 X38.751 Y162.249 E10.37543
G1 X38.207 Y162.698 E10.39932
G1 X37.531 Y163.129 E10.42646
G1 X37.116 Y163.358 E10.44251
G0 F810 X36.631 Y163.626
M204 S2038
G0 F5454 X36.283 Y162.996
M204 S815
G1 F1050 E10.4613
G1 F900 X35.684 Y163.282 E10.48378
G1 X35.212 Y163.448 E10.50072
G1 X34.196 Y163.755 E10.53666
G1 X33.549 Y163.909 E10.55917
G1 X32.874 Y163.984 E10.58217
G1 X31.489 Y164.053 E10.62912
G1 X30.824 Y164.046 E10.65164
G1 X30.336 Y163.99 E10.66827
G1 X29.672 Y163.883 E10.69104
G1 X29.024 Y163.738 E10.71353
G1 X28.625 Y163.606 E10.72776
G1 X27.405 Y163.152 E10.77183
G1 X26.797 Y162.884 E10.79433
G1 X26.047 Y162.417 E10.82425
G1 X24.844 Y161.527 E10.87491
G1 X24.335 Y161.1 E10.89741
G1 X23.853 Y160.583 E10.92134
G1 X23.32 Y159.931 E10.94986
G1 X22.881 Y159.311 E10.97558
G1 X22.531 Y158.737 E10.99834
G1 X22.163 Y158.021 E11.0256
G1 X21.824 Y157.223 E11.05495
G1 X21.602 Y156.597 E11.07744
G1 X21.495 Y156.16 E11.09268
G1 X21.289 Y155.142 E11.12784
G1 X21.196 Y154.484 E11.15034
G1 X21.18 Y153.972 E11.16769
G1 X21.195 Y152.872 E11.20494
G1 X21.292 Y151.912 E11.23761
G1 X21.41 Y151.294 E11.25891
G1 X21.574 Y150.65 E11.28141
G1 X21.719 Y150.249 E11.29585
G1 X22.201 Y149.064 E11.33916
G1 X22.488 Y148.465 E11.36165
G1 X22.954 Y147.758 E11.39032
G1 X23.914 Y146.522 E11.44331
G1 X24.353 Y146.023 E11.46582
G1 X25.097 Y145.394 E11.49881
G1 X26.188 Y144.626 E11.54398
G1 X26.753 Y144.277 E11.56647
G1 X27.22 Y144.054 E11.58399
G1 X27.936 Y143.752 E11.6103
G1 X28.822 Y143.464 E11.64184
G1 X29.731 Y143.251 E11.67346
G1 X30.385 Y143.138 E11.69593
G1 X31.032 Y143.105 E11.71786
G1 X32.467 Y143.116 E11.76645
G1 X33.13 Y143.161 E11.78895
G1 X33.85 Y143.303 E11.8138
G1 X34.883 Y143.579 E11.85
G1 X35.513 Y143.789 E11.87249
G1 X36.133 Y144.084 E11.89574
G1 X37.344 Y144.755 E11.94261
G1 X37.905 Y145.111 E11.96511
G1 X38.289 Y145.416 E11.98171
G1 X38.815 Y145.873 E12.00531
G1 X39.461 Y146.537 E12.03667
G1 X40.003 Y147.197 E12.06559
G1 X40.451 Y147.827 E12.09176
G1 X40.799 Y148.398 E12.11441
G1 X41.226 Y149.26 E12.14698
G1 X41.616 Y150.257 E12.18322
G1 X41.82 Y150.889 E12.20571
G1 X41.936 Y151.466 E12.22564
G1 X42.117 Y152.698 E12.2678
G1 X42.174 Y153.359 E12.29026
G1 X42.153 Y154 E12.31198
G1 X42.059 Y155.034 E12.34713
G1 X41.96 Y155.69 E12.3696
G1 X41.841 Y156.147 E12.38559
G1 X41.547 Y157.109 E12.41965
G1 X41.315 Y157.732 E12.44216
G1 X40.999 Y158.339 E12.46533
G1 X40.255 Y159.577 E12.51423
G1 X39.88 Y160.125 E12.53671
G1 X39.272 Y160.787 E12.56715
G1 X38.263 Y161.72 E12.61368
G1 X37.749 Y162.141 E12.63617
G1 X37.183 Y162.499 E12.65885
G1 X36.768 Y162.728 E12.6749
G0 F810 X36.283 Y162.996
M204 S2038
G0 F5454 X35.935 Y162.366
M204 S815
G1 F1050 E12.69369
G1 F900 X35.375 Y162.63 E12.71465
G1 X35.003 Y162.759 E12.72799
G1 X33.987 Y163.066 E12.76392
G1 X33.384 Y163.206 E12.78488
G1 X32.838 Y163.265 E12.80348
G1 X31.453 Y163.334 E12.85043
G1 X30.834 Y163.325 E12.87139
G1 X30.45 Y163.279 E12.88449
G1 X29.786 Y163.172 E12.90726
G1 X29.183 Y163.034 E12.9282
G1 X28.876 Y162.932 E12.93916
G1 X27.656 Y162.478 E12.98323
G1 X27.091 Y162.225 E13.00419
G1 X26.475 Y161.838 E13.02882
G1 X25.272 Y160.948 E13.07949
G1 X24.799 Y160.548 E13.10047
G1 X24.411 Y160.127 E13.11985
G1 X23.878 Y159.475 E13.14836
G1 X23.496 Y158.936 E13.17073
G1 X23.146 Y158.362 E13.1935
G1 X22.826 Y157.74 E13.21718
G1 X22.487 Y156.942 E13.24654
G1 X22.282 Y156.357 E13.26753
G1 X22.2 Y156.017 E13.27937
G1 X21.994 Y154.999 E13.31453
G1 X21.911 Y154.385 E13.33551
G1 X21.899 Y153.982 E13.34916
G1 X21.914 Y152.882 E13.38641
G1 X21.999 Y152.047 E13.41483
G1 X22.117 Y151.429 E13.43613
G1 X22.272 Y150.829 E13.45712
G1 X22.386 Y150.52 E13.46827
G1 X22.868 Y149.335 E13.51158
G1 X23.138 Y148.778 E13.53254
G1 X23.523 Y148.2 E13.55606
G1 X24.483 Y146.964 E13.60905
G1 X24.894 Y146.5 E13.63003
G1 X25.511 Y145.983 E13.65729
G1 X26.602 Y145.215 E13.70246
G1 X27.13 Y144.892 E13.72342
G1 X27.5 Y144.717 E13.73728
G1 X28.216 Y144.415 E13.76359
G1 X28.986 Y144.165 E13.791
G1 X29.895 Y143.952 E13.82261
G1 X30.506 Y143.849 E13.84359
G1 X31.027 Y143.825 E13.86125
G1 X32.462 Y143.836 E13.90984
G1 X33.08 Y143.881 E13.93082
G1 X33.664 Y143.999 E13.951
G1 X34.697 Y144.275 E13.9872
G1 X35.284 Y144.473 E14.00817
G1 X35.784 Y144.713 E14.02695
G1 X36.995 Y145.384 E14.07383
G1 X37.517 Y145.719 E14.09483
G1 X37.817 Y145.96 E14.10786
G1 X38.343 Y146.417 E14.13145
G1 X38.904 Y146.994 E14.1587
G1 X39.446 Y147.654 E14.18762
G1 X39.836 Y148.202 E14.21039
G1 X40.184 Y148.773 E14.23303
G1 X40.555 Y149.522 E14.26133
G1 X40.945 Y150.519 E14.29758
G1 X41.133 Y151.11 E14.31858
G1 X41.224 Y151.57 E14.33446
G1 X41.405 Y152.802 E14.37662
G1 X41.455 Y153.42 E14.39761
