;FLAVOR:Marlin
;TIME:296
;Filament used: 0.125224m
;Layer height: 0.25
;Extruders used: T0 0.6
;BCN3D_FIXES
;Generated with Cura_SteamEngine 2.1.5
T0
M190 S60
M104 S205
M109 S205
M82 ;absolute extrusion mode
;Sigma ProGen 2.2.0 (Build 14CJ1301)
;BCN3D Fixes applied
; - Fix Acceleration/Jerk commands
; - Z Hop At Layer Change

G21          ;metric values
G90          ;absolute positioning
M204 S600 ;set default acceleration
M205 X12.5 Y12.5 ;set default jerk
M107         ;start with the fan off
G28 X0 Y0    ;move X/Y to min endstops
G28 Z0       ;move Z to min endstops
G1 Z5 F200   ;safety Z axis movement
T1           ;switch to the right extruder
G92 E0       ;zero the extruded length

G92 E0       
G4 P2000     ;stabilize hotend's pressure
T0           ;switch to the left extruder
G92 E0       ;zero the extruded length
G1 F106.2 E15 ;extrude 15mm of feed stock
G92 E0
G4 P2000     ;stabilize hotend's pressure


M92 E510.9
M500
G4 P1
G4 P2
G4 P3

;LAYER_COUNT:40
;LAYER:0
M107
M204 S2038
M205 X9.38 Y9.38
G0 F5454 X40.099 Y66.57 Z0.3
M204 S815
;TYPE:SKIRT
G1 F900 X39.13 Y66.753 E0.03339
G1 X38.381 Y66.85 E0.05896
G1 X37.564 Y66.916 E0.08671
G1 X36.551 Y66.886 E0.12103
G1 X35.136 Y66.759 E0.16913
G1 X34.324 Y66.646 E0.19689
G1 X33.528 Y66.455 E0.22461
G1 X32.885 Y66.238 E0.24758
G1 X31.654 Y65.767 E0.29221
G1 X30.904 Y65.438 E0.31994
G1 X30.19 Y65.036 E0.34769
G1 X29.674 Y64.685 E0.36882
G1 X28.573 Y63.874 E0.41512
G1 X27.938 Y63.357 E0.44284
G1 X27.356 Y62.78 E0.47059
G1 X26.881 Y62.212 E0.49566
G1 X26.002 Y61.062 E0.54467
G1 X25.537 Y60.387 E0.57242
G1 X25.14 Y59.671 E0.60014
G1 X24.865 Y59.051 E0.62311
G1 X24.391 Y57.853 E0.66673
G1 X24.127 Y57.078 E0.69445
G1 X23.94 Y56.28 E0.7222
G1 X23.853 Y55.686 E0.74253
G1 X23.709 Y54.384 E0.78688
G1 X23.659 Y53.566 E0.81463
G1 X23.724 Y52.408 E0.8539
G1 X23.871 Y51.245 E0.89359
G1 X24.014 Y50.438 E0.92134
G1 X24.153 Y49.905 E0.94
G1 X24.268 Y49.518 E0.95366
G1 X24.539 Y48.745 E0.9814
G1 X24.796 Y48.175 E1.00257
G1 X25.368 Y47.023 E1.04612
G1 X25.768 Y46.308 E1.07386
G1 X26.317 Y45.532 E1.10604
G1 X26.829 Y44.888 E1.1339
G1 X27.369 Y44.272 E1.16164
G1 X27.859 Y43.806 E1.18453
G1 X28.47 Y43.269 E1.21208
G1 X29.111 Y42.758 E1.23983
G1 X29.676 Y42.385 E1.26276
G1 X30.674 Y41.783 E1.30222
G1 X31.396 Y41.395 E1.32997
G1 X32.459 Y40.974 E1.36868
G1 X33.49 Y40.645 E1.40533
G1 X34.282 Y40.434 E1.43308
G1 X34.987 Y40.314 E1.45729
G1 X35.72 Y40.221 E1.48231
G1 X36.537 Y40.157 E1.51006
G1 X37.453 Y40.181 E1.54108
G1 X38.778 Y40.288 E1.58609
G1 X39.591 Y40.394 E1.61385
G1 X40.389 Y40.578 E1.64158
G1 X40.81 Y40.709 E1.65651
G1 X41.879 Y41.073 E1.69475
G1 X42.641 Y41.375 E1.7225
G1 X43.484 Y41.817 E1.75473
G1 X44.313 Y42.313 E1.78744
G1 X44.995 Y42.767 E1.81518
G1 X45.819 Y43.463 E1.8517
G1 X46.706 Y44.315 E1.89334
G1 X47.269 Y44.911 E1.9211
G1 X47.751 Y45.531 E1.94769
G1 X48.17 Y46.125 E1.9723
G1 X48.609 Y46.817 E2.00005
G1 X48.809 Y47.191 E2.01441
G1 X49.198 Y47.964 E2.04371
G1 X49.531 Y48.713 E2.07147
G1 X49.808 Y49.565 E2.1018
G1 X50.082 Y50.587 E2.13763
G1 X50.256 Y51.388 E2.16538
G1 X50.358 Y52.339 E2.19776
G1 X50.411 Y53.39 E2.23339
G1 X50.413 Y54.209 E2.26113
G1 X50.284 Y55.328 E2.29926
G1 X50.072 Y56.484 E2.33906
G1 X49.885 Y57.282 E2.36681
G1 X49.549 Y58.235 E2.40102
G1 X49.13 Y59.228 E2.43752
G1 X48.775 Y59.966 E2.46525
G1 X48.259 Y60.799 E2.49842
G1 X47.666 Y61.641 E2.53329
G1 X47.162 Y62.287 E2.56103
G1 X46.489 Y62.982 E2.59379
G1 X45.614 Y63.788 E2.63407
G1 X44.985 Y64.313 E2.66181
G1 X44.301 Y64.779 E2.68984
G1 X43.736 Y65.124 E2.71225
G1 X43.016 Y65.517 E2.74002
G1 X42.19 Y65.863 E2.77035
G1 X40.883 Y66.331 E2.81735
G1 X40.63 Y66.409 E2.82632
G0 F810 X40.099 Y66.57
M204 S2038
G0 F5454 X39.89 Y65.88
M204 S815
G1 F1050 E2.84511
G1 F900 X39.037 Y66.039 E2.87449
G1 X38.288 Y66.136 E2.90006
G1 X37.507 Y66.197 E2.92658
G1 X36.615 Y66.169 E2.9568
G1 X35.2 Y66.042 E3.0049
G1 X34.425 Y65.932 E3.03141
G1 X33.664 Y65.744 E3.05795
G1 X33.143 Y65.566 E3.07659
G1 X31.912 Y65.095 E3.12122
G1 X31.195 Y64.778 E3.14776
G1 X30.514 Y64.39 E3.1743
G1 X30.101 Y64.106 E3.19127
G1 X29 Y63.295 E3.23757
G1 X28.394 Y62.798 E3.26411
G1 X27.841 Y62.243 E3.29064
G1 X27.453 Y61.775 E3.31122
G1 X26.574 Y60.625 E3.36023
G1 X26.131 Y59.979 E3.38675
G1 X25.755 Y59.291 E3.4133
G1 X25.535 Y58.787 E3.43192
G1 X25.061 Y57.589 E3.47554
G1 X24.81 Y56.846 E3.50209
G1 X24.636 Y56.082 E3.52862
G1 X24.569 Y55.607 E3.54487
G1 X24.425 Y54.305 E3.58922
G1 X24.378 Y53.523 E3.61575
G1 X24.439 Y52.498 E3.65051
G1 X24.586 Y51.335 E3.6902
G1 X24.723 Y50.564 E3.71672
G1 X24.843 Y50.11 E3.73262
G1 X24.958 Y49.723 E3.74629
G1 X25.219 Y48.985 E3.77279
G1 X25.441 Y48.496 E3.79098
G1 X26.013 Y47.344 E3.83452
G1 X26.397 Y46.66 E3.86108
G1 X26.88 Y45.98 E3.88933
G1 X27.392 Y45.336 E3.91718
G1 X27.911 Y44.748 E3.94374
G1 X28.334 Y44.346 E3.9635
G1 X28.945 Y43.809 E3.99104
G1 X29.559 Y43.323 E4.01755
G1 X30.048 Y43.002 E4.03736
G1 X31.046 Y42.4 E4.07682
G1 X31.737 Y42.03 E4.10336
G1 X32.678 Y41.659 E4.13761
G1 X33.709 Y41.33 E4.17425
G1 X34.467 Y41.131 E4.20079
G1 X35.077 Y41.028 E4.22173
G1 X35.81 Y40.935 E4.24675
G1 X36.592 Y40.876 E4.2733
G1 X37.395 Y40.899 E4.3005
G1 X38.72 Y41.006 E4.34551
G1 X39.497 Y41.109 E4.37205
G1 X40.578 Y41.391 E4.40988
G1 X41.647 Y41.755 E4.44811
G1 X42.374 Y42.045 E4.47461
G1 X43.114 Y42.435 E4.50294
G1 X43.943 Y42.931 E4.53565
G1 X44.594 Y43.367 E4.56218
G1 X45.32 Y43.982 E4.59439
G1 X46.207 Y44.834 E4.63604
G1 X46.744 Y45.405 E4.66258
G1 X47.163 Y45.946 E4.68574
G1 X47.582 Y46.54 E4.71036
G1 X48.166 Y47.515 E4.74884
G1 X48.555 Y48.288 E4.77814
G1 X48.871 Y49.005 E4.80467
G1 X49.113 Y49.751 E4.83122
G1 X49.387 Y50.773 E4.86705
G1 X49.551 Y51.539 E4.89357
G1 X49.639 Y52.375 E4.92204
G1 X49.692 Y53.426 E4.95767
G1 X49.692 Y54.21 E4.98421
G1 X49.576 Y55.198 E5.01789
G1 X49.364 Y56.354 E5.05769
G1 X49.184 Y57.117 E5.08423
G1 X48.886 Y57.955 E5.11435
G1 X48.467 Y58.948 E5.15084
G1 X48.126 Y59.653 E5.17736
G1 X47.67 Y60.384 E5.20653
G1 X47.077 Y61.226 E5.2414
G1 X46.594 Y61.843 E5.26793
G1 X46.001 Y62.453 E5.29673
G1 X45.126 Y63.259 E5.33701
G1 X44.524 Y63.76 E5.36353
G1 X43.925 Y64.165 E5.38801
G1 X43.36 Y64.51 E5.41043
G1 X42.672 Y64.883 E5.43693
G1 X41.947 Y65.185 E5.46352
G1 X40.64 Y65.653 E5.51052
G1 X40.421 Y65.72 E5.51828
G0 F810 X39.89 Y65.88
M204 S2038
G0 F5454 X39.683 Y65.189
M204 S815
G1 F1050 E5.53707
G1 F900 X38.945 Y65.325 E5.56248
G1 X38.196 Y65.422 E5.58805
G1 X37.452 Y65.478 E5.61331
G1 X36.68 Y65.452 E5.63947
G1 X35.265 Y65.325 E5.68757
G1 X34.527 Y65.219 E5.71282
G1 X33.804 Y65.034 E5.73808
G1 X33.4 Y64.893 E5.75257
G1 X32.169 Y64.422 E5.7972
G1 X31.487 Y64.119 E5.82247
G1 X30.842 Y63.744 E5.84773
G1 X30.528 Y63.526 E5.86067
G1 X29.427 Y62.715 E5.90697
G1 X28.851 Y62.241 E5.93223
G1 X28.329 Y61.708 E5.95749
G1 X28.025 Y61.338 E5.9737
G1 X27.146 Y60.188 E6.02271
G1 X26.726 Y59.572 E6.04796
G1 X26.374 Y58.914 E6.07322
G1 X26.204 Y58.522 E6.08769
G1 X25.73 Y57.324 E6.13131
G1 X25.493 Y56.616 E6.15659
G1 X25.284 Y55.528 E6.19411
G1 X25.14 Y54.226 E6.23846
G1 X25.098 Y53.481 E6.26372
G1 X25.153 Y52.588 E6.29402
G1 X25.3 Y51.425 E6.33371
G1 X25.433 Y50.691 E6.35897
G1 X25.533 Y50.315 E6.37214
G1 X25.648 Y49.928 E6.38581
G1 X25.899 Y49.226 E6.41105
G1 X26.086 Y48.816 E6.42631
G1 X26.658 Y47.664 E6.46986
G1 X27.025 Y47.014 E6.49513
G1 X27.444 Y46.428 E6.51953
G1 X27.956 Y45.784 E6.54738
G1 X28.451 Y45.225 E6.57266
G1 X28.809 Y44.887 E6.58933
G1 X29.42 Y44.35 E6.61688
G1 X30.006 Y43.888 E6.64214
G1 X30.42 Y43.618 E6.65888
G1 X31.418 Y43.016 E6.69834
G1 X32.077 Y42.666 E6.72361
G1 X32.897 Y42.345 E6.75342
G1 X33.928 Y42.016 E6.79006
G1 X34.65 Y41.828 E6.81533
G1 X35.168 Y41.742 E6.8331
G1 X35.901 Y41.649 E6.85812
G1 X36.645 Y41.595 E6.88338
G1 X37.337 Y41.617 E6.90682
G1 X38.662 Y41.724 E6.95183
G1 X39.401 Y41.823 E6.97708
G1 X40.345 Y42.072 E7.01013
G1 X41.414 Y42.436 E7.04837
G1 X42.107 Y42.714 E7.07365
G1 X42.744 Y43.052 E7.09807
G1 X43.573 Y43.548 E7.13078
G1 X44.192 Y43.965 E7.15605
G1 X44.821 Y44.502 E7.18405
G1 X45.708 Y45.354 E7.22569
G1 X46.218 Y45.898 E7.25094
G1 X46.574 Y46.361 E7.27072
G1 X46.993 Y46.955 E7.29533
G1 X47.523 Y47.838 E7.3302
G1 X47.912 Y48.611 E7.3595
G1 X48.211 Y49.295 E7.38477
G1 X48.418 Y49.938 E7.40765
G1 X48.692 Y50.96 E7.44347
G1 X48.846 Y51.689 E7.4687
G1 X48.92 Y52.411 E7.49327
G1 X48.973 Y53.462 E7.52891
G1 X48.971 Y54.208 E7.55416
G1 X48.868 Y55.068 E7.58349
G1 X48.656 Y56.224 E7.62329
G1 X48.482 Y56.95 E7.64856
G1 X48.223 Y57.675 E7.67463
G1 X47.804 Y58.668 E7.71112
G1 X47.477 Y59.339 E7.7364
G1 X47.081 Y59.97 E7.76162
G1 X46.488 Y60.812 E7.79649
G1 X46.027 Y61.398 E7.82174
G1 X45.513 Y61.923 E7.84661
G1 X44.638 Y62.729 E7.88689
G1 X44.064 Y63.204 E7.91212
G1 X43.55 Y63.55 E7.9331
G1 X42.985 Y63.895 E7.95551
G1 X42.329 Y64.249 E7.98075
G1 X41.704 Y64.508 E8.00366
G1 X40.397 Y64.976 E8.05066
G1 X40.214 Y65.031 E8.05713
G0 F810 X39.683 Y65.189
M204 S2038
G0 F5454 X39.477 Y64.498
M204 S815
G1 F1050 E8.07593
G1 F900 X38.852 Y64.611 E8.09743
G1 X38.103 Y64.708 E8.123
G1 X37.399 Y64.759 E8.1469
G1 X36.744 Y64.735 E8.1691
G1 X35.329 Y64.608 E8.2172
G1 X34.63 Y64.505 E8.24112
G1 X33.657 Y64.221 E8.27544
G1 X32.426 Y63.75 E8.32007
G1 X31.782 Y63.461 E8.34397
G1 X30.955 Y62.946 E8.37696
G1 X29.854 Y62.135 E8.42326
G1 X29.31 Y61.685 E8.44716
G1 X28.821 Y61.176 E8.47106
G1 X28.597 Y60.9 E8.48309
G1 X27.718 Y59.75 E8.5321
G1 X27.322 Y59.166 E8.556
G1 X26.874 Y58.257 E8.59031
G1 X26.4 Y57.059 E8.63393
G1 X26.177 Y56.388 E8.65787
G1 X26 Y55.449 E8.69023
G1 X25.856 Y54.147 E8.73458
G1 X25.818 Y53.442 E8.75848
G1 X25.867 Y52.679 E8.78437
G1 X26.014 Y51.516 E8.82406
G1 X26.224 Y50.521 E8.85849
G1 X26.339 Y50.134 E8.87216
G1 X26.578 Y49.469 E8.89609
G1 X26.731 Y49.136 E8.9085
G1 X27.303 Y47.984 E8.95205
G1 X27.652 Y47.37 E8.97596
G1 X28.008 Y46.876 E8.99658
G1 X28.52 Y46.232 E9.02443
G1 X28.99 Y45.705 E9.04834
G1 X29.285 Y45.428 E9.06205
G1 X29.896 Y44.891 E9.08959
G1 X30.452 Y44.455 E9.11351
G1 X30.792 Y44.235 E9.12722
G1 X31.79 Y43.633 E9.16669
G1 X32.414 Y43.303 E9.19059
G1 X33.116 Y43.031 E9.21608
G1 X34.147 Y42.702 E9.25272
G1 X34.831 Y42.526 E9.27663
G1 X35.259 Y42.457 E9.29131
G1 X35.992 Y42.364 E9.31633
G1 X36.696 Y42.315 E9.34023
G1 X37.279 Y42.334 E9.35998
G1 X38.604 Y42.441 E9.40498
G1 X39.304 Y42.538 E9.42891
G1 X40.113 Y42.754 E9.45726
G1 X41.182 Y43.118 E9.4955
G1 X41.837 Y43.383 E9.51942
G1 X42.375 Y43.67 E9.54007
G1 X43.204 Y44.166 E9.57278
G1 X43.788 Y44.563 E9.59669
G1 X44.323 Y45.021 E9.62054
G1 X45.21 Y45.873 E9.66218
G1 X45.691 Y46.39 E9.68609
G1 X45.986 Y46.776 E9.70254
G1 X46.405 Y47.37 E9.72715
G1 X46.88 Y48.162 E9.75842
G1 X47.269 Y48.935 E9.78772
G1 X47.55 Y49.583 E9.81163
G1 X47.722 Y50.124 E9.83086
G1 X47.996 Y51.146 E9.86668
G1 X48.14 Y51.838 E9.89061
G1 X48.201 Y52.448 E9.91137
G1 X48.254 Y53.499 E9.947
G1 X48.25 Y54.205 E9.97091
G1 X48.16 Y54.939 E9.99595
G1 X47.948 Y56.095 E10.03574
G1 X47.781 Y56.781 E10.05965
G1 X47.559 Y57.395 E10.08175
G1 X47.14 Y58.388 E10.11824
G1 X46.829 Y59.022 E10.14215
G1 X46.493 Y59.555 E10.16349
G1 X45.9 Y60.397 E10.19836
G1 X45.461 Y60.951 E10.22229
G1 X45.026 Y61.394 E10.24331
G1 X44.151 Y62.2 E10.28359
G1 X43.605 Y62.648 E10.30751
G1 X43.175 Y62.936 E10.32503
G1 X42.61 Y63.281 E10.34745
G1 X41.987 Y63.614 E10.37136
G1 X41.462 Y63.83 E10.39059
G1 X40.155 Y64.298 E10.43759
G1 X40.009 Y64.341 E10.44274
G0 F810 X39.477 Y64.498
M204 S2038
G0 F5454 X39.274 Y63.806
M204 S815
G1 F1050 E10.46154
G1 F900 X38.76 Y63.897 E10.47921
G1 X38.011 Y63.994 E10.50478
G1 X37.348 Y64.04 E10.52728
G1 X36.809 Y64.018 E10.54555
G1 X35.394 Y63.891 E10.59365
G1 X34.737 Y63.792 E10.61615
G1 X33.914 Y63.549 E10.6452
G1 X32.683 Y63.078 E10.68983
G1 X32.078 Y62.803 E10.71233
G1 X31.382 Y62.366 E10.74016
G1 X30.281 Y61.555 E10.78646
G1 X29.771 Y61.13 E10.80894
G1 X29.169 Y60.463 E10.83936
G1 X28.29 Y59.313 E10.88837
G1 X27.92 Y58.762 E10.91084
G1 X27.543 Y57.992 E10.93987
G1 X27.069 Y56.794 E10.98349
G1 X26.862 Y56.163 E11.00598
G1 X26.715 Y55.37 E11.03329
G1 X26.571 Y54.068 E11.07764
G1 X26.538 Y53.404 E11.10015
G1 X26.582 Y52.769 E11.1217
G1 X26.729 Y51.606 E11.16139
G1 X26.914 Y50.726 E11.19184
G1 X27.029 Y50.339 E11.20551
G1 X27.376 Y49.456 E11.23763
G1 X27.948 Y48.304 E11.28118
G1 X28.279 Y47.728 E11.30368
G1 X28.571 Y47.324 E11.32055
G1 X29.083 Y46.68 E11.34841
G1 X29.76 Y45.969 E11.38165
G1 X30.371 Y45.432 E11.40919
G1 X31.164 Y44.851 E11.44248
G1 X32.162 Y44.249 E11.48194
G1 X32.75 Y43.941 E11.50442
G1 X33.335 Y43.717 E11.52563
G1 X34.366 Y43.388 E11.56227
G1 X35.01 Y43.225 E11.58476
G1 X35.349 Y43.171 E11.59639
G1 X36.082 Y43.078 E11.6214
G1 X36.745 Y43.034 E11.6439
G1 X37.221 Y43.052 E11.66003
G1 X38.546 Y43.159 E11.70504
G1 X39.204 Y43.252 E11.72754
G1 X39.881 Y43.436 E11.75129
G1 X40.95 Y43.8 E11.78953
G1 X41.565 Y44.051 E11.81202
G1 X42.005 Y44.288 E11.82894
G1 X42.834 Y44.784 E11.86165
G1 X43.383 Y45.159 E11.88416
G1 X43.824 Y45.54 E11.9039
G1 X44.711 Y46.392 E11.94554
G1 X45.161 Y46.88 E11.96802
G1 X45.398 Y47.191 E11.98125
G1 X45.817 Y47.785 E12.00587
G1 X46.237 Y48.486 E12.03354
G1 X46.626 Y49.259 E12.06284
G1 X46.888 Y49.869 E12.08531
G1 X47.027 Y50.311 E12.101
G1 X47.301 Y51.333 E12.13683
G1 X47.434 Y51.983 E12.15929
G1 X47.482 Y52.484 E12.17633
G1 X47.535 Y53.535 E12.21197
G1 X47.528 Y54.199 E12.23445
G1 X47.451 Y54.809 E12.25527
G1 X47.239 Y55.965 E12.29506
G1 X47.081 Y56.61 E12.31755
G1 X46.896 Y57.115 E12.33576
G1 X46.477 Y58.108 E12.37225
G1 X46.182 Y58.703 E12.39473
G1 X45.904 Y59.14 E12.41227
G1 X45.311 Y59.982 E12.44714
G1 X44.897 Y60.502 E12.46965
G1 X44.538 Y60.864 E12.48691
G1 X43.663 Y61.67 E12.52719
G1 X43.148 Y62.09 E12.54969
G1 X42.8 Y62.321 E12.56383
G1 X42.235 Y62.666 E12.58625
G1 X41.648 Y62.978 E12.60876
G1 X41.219 Y63.152 E12.62443
G1 X39.912 Y63.62 E12.67144
G1 X39.807 Y63.651 E12.67514
G0 F810 X39.274 Y63.806
M204 S2038
G0 F5454 X39.074 Y63.113
M204 S815
G1 F1050 E12.69393
G1 F900 X38.667 Y63.183 E12.70792
G1 X37.918 Y63.28 E12.73349
G1 X37.3 Y63.32 E12.75446
G1 X36.873 Y63.301 E12.76893
G1 X35.458 Y63.174 E12.81703
G1 X34.846 Y63.079 E12.838
G1 X34.172 Y62.876 E12.86184
G1 X32.941 Y62.405 E12.90646
G1 X32.378 Y62.147 E12.92743
G1 X31.809 Y61.787 E12.95023
G1 X30.708 Y60.976 E12.99653
G1 X30.234 Y60.577 E13.01751
G1 X29.741 Y60.026 E13.04254
G1 X28.862 Y58.876 E13.09155
G1 X28.519 Y58.361 E13.1125
G1 X28.213 Y57.727 E13.13634
G1 X27.739 Y56.529 E13.17996
G1 X27.548 Y55.94 E13.20093
G1 X27.431 Y55.291 E13.22326
G1 X27.287 Y53.989 E13.26761
G1 X27.259 Y53.37 E13.28859
G1 X27.296 Y52.859 E13.30594
G1 X27.443 Y51.696 E13.34563
G1 X27.604 Y50.931 E13.3721
G1 X27.719 Y50.544 E13.38577
G1 X28.021 Y49.776 E13.41371
G1 X28.593 Y48.624 E13.45726
G1 X28.903 Y48.089 E13.47819
G1 X29.135 Y47.772 E13.4915
G1 X29.647 Y47.128 E13.51935
G1 X30.235 Y46.51 E13.54824
G1 X30.846 Y45.973 E13.57578
G1 X31.536 Y45.468 E13.60473
G1 X32.534 Y44.866 E13.64419
G1 X33.084 Y44.581 E13.66517
G1 X33.554 Y44.403 E13.68218
G1 X34.585 Y44.074 E13.71883
G1 X35.44 Y43.885 E13.74847
G1 X36.173 Y43.792 E13.77349
G1 X36.791 Y43.754 E13.79446
G1 X37.163 Y43.77 E13.80706
G1 X38.488 Y43.877 E13.85207
G1 X39.101 Y43.966 E13.87305
G1 X39.649 Y44.117 E13.89229
G1 X40.718 Y44.481 E13.93053
G1 X41.29 Y44.718 E13.95149
G1 X41.635 Y44.906 E13.9648
G1 X42.464 Y45.402 E13.9975
G1 X42.974 Y45.754 E14.01849
G1 X43.325 Y46.059 E14.03423
G1 X44.212 Y46.911 E14.07587
G1 X44.809 Y47.606 E14.1069
G1 X45.228 Y48.2 E14.13151
G1 X45.594 Y48.809 E14.15557
G1 X45.983 Y49.582 E14.18487
G1 X46.225 Y50.152 E14.20583
G1 X46.331 Y50.497 E14.21805
G1 X46.605 Y51.519 E14.25388
G1 X46.727 Y52.126 E14.27484
G1 X46.763 Y52.52 E14.28824
G1 X46.816 Y53.571 E14.32387
G1 X46.807 Y54.191 E14.34486
G1 X46.743 Y54.679 E14.36153
G1 X46.531 Y55.835 E14.40132
G1 X46.38 Y56.436 E14.4223
G1 X46.232 Y56.835 E14.43671
G1 X45.813 Y57.828 E14.47321
G1 X45.536 Y58.382 E14.49418
G1 X45.315 Y58.726 E14.50802
G1 X44.722 Y59.568 E14.54289
G1 X44.334 Y60.05 E14.56384
G1 X44.05 Y60.334 E14.57744
G1 X43.175 Y61.14 E14.61772
G1 X42.693 Y61.53 E14.63872
G1 X42.424 Y61.707 E14.64962
