;FLAVOR:Marlin
;TIME:147
;Filament used: 0.0593156m
;Layer height: 0.25
;Extruders used: T0 0.6
;BCN3D_FIXES
;Generated with Cura_SteamEngine 2.1.5
T0
M190 S60
M104 S205
M109 S205
M82 ;absolute extrusion mode
;Sigma ProGen 2.2.0 (Build 14CJ1301)
;BCN3D Fixes applied
; - Fix Acceleration/Jerk commands
; - Z Hop At Layer Change

G21          ;metric values
G90          ;absolute positioning
M204 S600 ;set default acceleration
M205 X12.5 Y12.5 ;set default jerk
M107         ;start with the fan off
G28 X0 Y0    ;move X/Y to min endstops
G28 Z0       ;move Z to min endstops
G1 Z5 F200   ;safety Z axis movement
T1           ;switch to the right extruder
G92 E0       ;zero the extruded length

G92 E0       
G4 P2000     ;stabilize hotend's pressure
T0           ;switch to the left extruder
G92 E0       ;zero the extruded length
G1 F106.2 E15 ;extrude 15mm of feed stock
G92 E0
G4 P2000     ;stabilize hotend's pressure


M92 E510.9
M500
G4 P1
G4 P2
G4 P3

;LAYER_COUNT:40
;LAYER:0
M107
M204 S2038
M205 X9.38 Y9.38
G0 F5454 X104.549 Y161.772 Z0.3
M204 S815
;TYPE:SKIRT
G1 F900 X103.73 Y161.742 E0.02775
G1 X102.918 Y161.632 E0.05549
G1 X102.431 Y161.527 E0.07236
G1 X101.26 Y161.237 E0.11321
G1 X100.475 Y161.001 E0.14096
G1 X99.717 Y160.69 E0.1687
G1 X99.31 Y160.486 E0.18412
G1 X98.118 Y159.847 E0.22991
G1 X97.416 Y159.425 E0.25765
G1 X96.509 Y158.725 E0.29644
G1 X95.857 Y158.146 E0.32596
G1 X95.272 Y157.572 E0.35371
G1 X94.586 Y156.728 E0.39054
G1 X93.8 Y155.621 E0.43651
G1 X93.359 Y154.931 E0.46423
G1 X92.987 Y154.2 E0.49201
G1 X92.722 Y153.537 E0.51618
G1 X92.281 Y152.279 E0.56132
G1 X92.048 Y151.493 E0.58908
G1 X91.872 Y150.532 E0.62215
G1 X91.767 Y149.684 E0.65109
G1 X91.706 Y148.867 E0.67883
G1 X91.719 Y148.128 E0.70385
G1 X91.772 Y147.28 E0.73262
G1 X91.863 Y146.466 E0.76035
G1 X91.975 Y145.899 E0.77992
G1 X92.186 Y144.993 E0.81142
G1 X92.411 Y144.205 E0.83917
G1 X92.649 Y143.582 E0.86175
G1 X92.939 Y142.907 E0.88662
G1 X93.299 Y142.171 E0.91436
G1 X93.741 Y141.456 E0.94283
G1 X94.391 Y140.513 E0.9816
G1 X94.888 Y139.862 E1.00934
G1 X95.447 Y139.262 E1.0371
G1 X95.948 Y138.812 E1.0599
G1 X97.179 Y137.792 E1.11403
G1 X97.834 Y137.3 E1.14177
G1 X98.535 Y136.875 E1.16953
G1 X99.215 Y136.545 E1.19512
G1 X100.211 Y136.116 E1.23184
G1 X100.979 Y135.829 E1.2596
G1 X102.062 Y135.561 E1.29737
G1 X103.309 Y135.339 E1.34026
G1 X104.122 Y135.235 E1.36801
G1 X105.328 Y135.227 E1.40885
G1 X106.462 Y135.301 E1.44732
G1 X107.276 Y135.394 E1.47506
G1 X108.077 Y135.566 E1.5028
G1 X108.512 Y135.695 E1.51817
G1 X109.684 Y136.076 E1.55989
G1 X110.45 Y136.367 E1.58764
G1 X111.184 Y136.731 E1.61538
G1 X111.538 Y136.94 E1.6293
G1 X112.527 Y137.558 E1.66878
G1 X113.2 Y138.026 E1.69654
G1 X114.042 Y138.769 E1.73456
G1 X114.816 Y139.55 E1.77179
G1 X115.364 Y140.16 E1.79956
G1 X115.85 Y140.82 E1.82731
G1 X116.142 Y141.293 E1.84613
G1 X116.834 Y142.503 E1.89333
G1 X117.205 Y143.233 E1.92105
G1 X117.613 Y144.345 E1.96116
G1 X117.906 Y145.361 E1.99696
G1 X118.094 Y146.159 E2.02472
G1 X118.217 Y147.133 E2.05796
G1 X118.275 Y148.007 E2.08762
G1 X118.289 Y148.826 E2.11535
G1 X118.252 Y149.389 E2.13446
G1 X118.162 Y150.3 E2.16545
G1 X118.042 Y151.11 E2.19318
G1 X117.781 Y152.102 E2.22791
G1 X117.415 Y153.213 E2.26751
G1 X117.121 Y153.978 E2.29526
G1 X116.655 Y154.882 E2.3297
G1 X116.162 Y155.71 E2.36233
G1 X115.708 Y156.393 E2.3901
G1 X115.222 Y156.994 E2.41627
G1 X114.645 Y157.643 E2.44567
G1 X114.071 Y158.228 E2.47342
G1 X113.274 Y158.88 E2.50828
G1 X112.207 Y159.648 E2.5528
G1 X111.519 Y160.093 E2.58054
G1 X110.797 Y160.468 E2.60809
G1 X110.275 Y160.707 E2.62753
G1 X109.514 Y161.011 E2.65527
G1 X108.847 Y161.21 E2.67884
G1 X107.706 Y161.5 E2.7187
G1 X106.903 Y161.663 E2.74645
G1 X105.736 Y161.758 E2.78609
G1 X105.104 Y161.766 E2.80749
G0 F810 X104.549 Y161.772
M204 S2038
G0 F5454 X104.541 Y161.052
M204 S815
G1 F1050 E2.82628
G1 F900 X103.758 Y161.022 E2.85281
G1 X102.604 Y160.828 E2.89243
G1 X101.433 Y160.538 E2.93328
G1 X100.683 Y160.311 E2.95981
G1 X99.65 Y159.852 E2.99809
G1 X98.458 Y159.213 E3.04388
G1 X97.788 Y158.808 E3.07039
G1 X96.987 Y158.187 E3.10471
G1 X96.335 Y157.608 E3.13423
G1 X95.777 Y157.058 E3.16076
G1 X95.173 Y156.311 E3.19328
G1 X94.387 Y155.204 E3.23925
G1 X93.966 Y154.543 E3.26579
G1 X93.616 Y153.842 E3.29232
G1 X93.401 Y153.299 E3.31209
G1 X92.96 Y152.041 E3.35723
G1 X92.739 Y151.289 E3.38377
G1 X92.586 Y150.444 E3.41284
G1 X92.481 Y149.596 E3.44177
G1 X92.425 Y148.814 E3.46832
G1 X92.438 Y148.173 E3.49003
G1 X92.491 Y147.325 E3.5188
G1 X92.58 Y146.546 E3.54534
G1 X92.676 Y146.062 E3.56205
G1 X92.887 Y145.156 E3.59355
G1 X93.104 Y144.403 E3.62008
G1 X93.311 Y143.866 E3.63957
G1 X93.601 Y143.191 E3.66444
G1 X93.946 Y142.488 E3.69096
G1 X94.334 Y141.864 E3.71584
G1 X94.984 Y140.921 E3.75462
G1 X95.461 Y140.3 E3.78113
G1 X95.999 Y139.73 E3.80767
G1 X96.407 Y139.366 E3.82618
G1 X97.638 Y138.346 E3.88031
G1 X98.266 Y137.878 E3.90683
G1 X98.939 Y137.476 E3.93337
G1 X99.5 Y137.206 E3.95445
G1 X100.496 Y136.777 E3.99117
G1 X101.23 Y136.505 E4.01768
G1 X102.188 Y136.27 E4.05107
G1 X103.435 Y136.048 E4.09396
G1 X104.212 Y135.95 E4.12048
G1 X105.281 Y135.945 E4.15667
G1 X106.415 Y136.019 E4.19515
G1 X107.193 Y136.11 E4.22167
G1 X108.289 Y136.379 E4.25988
G1 X109.461 Y136.76 E4.30161
G1 X110.193 Y137.04 E4.32815
G1 X111.157 Y137.551 E4.36509
G1 X112.146 Y138.169 E4.40457
G1 X112.788 Y138.618 E4.4311
G1 X113.531 Y139.276 E4.46471
G1 X114.305 Y140.057 E4.50194
G1 X114.827 Y140.641 E4.52846
G1 X115.288 Y141.275 E4.555
G1 X115.517 Y141.65 E4.56988
G1 X116.209 Y142.86 E4.61707
G1 X116.563 Y143.559 E4.6436
G1 X116.921 Y144.545 E4.67912
G1 X117.214 Y145.561 E4.71492
G1 X117.393 Y146.324 E4.74146
G1 X117.498 Y147.18 E4.77066
G1 X117.556 Y148.054 E4.80032
G1 X117.568 Y148.838 E4.82686
G1 X117.536 Y149.318 E4.84315
G1 X117.446 Y150.229 E4.87415
G1 X117.329 Y151.004 E4.90069
G1 X117.097 Y151.877 E4.93127
G1 X116.731 Y152.988 E4.97088
G1 X116.449 Y153.719 E4.99741
G1 X116.036 Y154.514 E5.02774
G1 X115.543 Y155.342 E5.06037
G1 X115.108 Y155.994 E5.08691
G1 X114.684 Y156.516 E5.10968
G1 X114.107 Y157.165 E5.13908
G1 X113.557 Y157.723 E5.16561
G1 X112.854 Y158.295 E5.1963
G1 X111.787 Y159.063 E5.24081
G1 X111.128 Y159.488 E5.26736
G1 X110.497 Y159.813 E5.29139
G1 X109.975 Y160.052 E5.31083
G1 X109.247 Y160.341 E5.33735
G1 X108.67 Y160.512 E5.35773
G1 X107.529 Y160.802 E5.39759
G1 X106.761 Y160.956 E5.42411
G1 X105.728 Y161.038 E5.4592
G1 X105.096 Y161.046 E5.4806
G0 F810 X104.541 Y161.052
M204 S2038
G0 F5454 X104.532 Y160.333
M204 S815
G1 F1050 E5.49939
G1 F900 X103.787 Y160.301 E5.52464
G1 X102.777 Y160.129 E5.55933
G1 X101.606 Y159.839 E5.60017
G1 X100.892 Y159.621 E5.62545
G1 X99.991 Y159.217 E5.65888
G1 X98.799 Y158.578 E5.70468
G1 X98.161 Y158.191 E5.72994
G1 X97.466 Y157.648 E5.75981
G1 X96.814 Y157.069 E5.78933
G1 X96.283 Y156.545 E5.81459
G1 X95.76 Y155.894 E5.84286
G1 X94.974 Y154.787 E5.88883
G1 X94.575 Y154.157 E5.91408
G1 X94.247 Y153.487 E5.93934
G1 X94.081 Y153.06 E5.95485
G1 X93.64 Y151.802 E5.99999
G1 X93.431 Y151.086 E6.02524
G1 X93.301 Y150.355 E6.05038
G1 X93.196 Y149.507 E6.07931
G1 X93.144 Y148.763 E6.10457
G1 X93.157 Y148.218 E6.12302
G1 X93.21 Y147.37 E6.15179
G1 X93.296 Y146.629 E6.17705
G1 X93.377 Y146.225 E6.191
G1 X93.588 Y145.319 E6.2225
G1 X93.796 Y144.603 E6.24774
G1 X93.972 Y144.151 E6.26417
G1 X94.262 Y143.476 E6.28904
G1 X94.593 Y142.807 E6.31432
G1 X94.926 Y142.273 E6.33562
G1 X95.576 Y141.33 E6.3744
G1 X96.032 Y140.739 E6.39968
G1 X96.548 Y140.201 E6.42492
G1 X96.866 Y139.921 E6.43926
G1 X98.097 Y138.901 E6.49339
G1 X98.696 Y138.456 E6.51866
G1 X99.34 Y138.078 E6.54394
G1 X99.785 Y137.868 E6.5606
G1 X100.781 Y137.439 E6.59732
G1 X101.481 Y137.181 E6.62258
G1 X102.314 Y136.979 E6.65161
G1 X103.561 Y136.757 E6.69449
G1 X104.301 Y136.666 E6.71974
G1 X105.234 Y136.664 E6.75133
G1 X106.368 Y136.738 E6.7898
G1 X107.109 Y136.826 E6.81507
G1 X108.067 Y137.064 E6.84849
G1 X109.239 Y137.445 E6.89022
G1 X109.935 Y137.713 E6.91547
G1 X110.775 Y138.162 E6.94772
G1 X111.764 Y138.78 E6.98721
G1 X112.375 Y139.208 E7.01247
G1 X113.02 Y139.783 E7.04172
G1 X113.794 Y140.564 E7.07895
G1 X114.289 Y141.121 E7.10418
G1 X114.892 Y142.008 E7.1405
G1 X115.584 Y143.218 E7.1877
G1 X115.919 Y143.884 E7.21294
G1 X116.229 Y144.744 E7.24389
G1 X116.522 Y145.76 E7.27969
G1 X116.69 Y146.487 E7.30496
G1 X116.78 Y147.228 E7.33023
G1 X116.838 Y148.102 E7.35989
G1 X116.847 Y148.848 E7.38515
G1 X116.819 Y149.247 E7.39869
G1 X116.729 Y150.158 E7.42969
G1 X116.616 Y150.896 E7.45497
G1 X116.414 Y151.652 E7.48146
G1 X116.048 Y152.763 E7.52107
G1 X115.777 Y153.458 E7.54633
G1 X115.417 Y154.146 E7.57262
G1 X114.924 Y154.974 E7.60525
G1 X114.509 Y155.593 E7.63048
G1 X114.146 Y156.037 E7.6499
G1 X113.569 Y156.686 E7.6793
G1 X113.044 Y157.217 E7.70459
G1 X112.433 Y157.711 E7.73119
G1 X111.366 Y158.479 E7.7757
G1 X110.738 Y158.882 E7.80097
G1 X110.197 Y159.158 E7.82153
G1 X109.675 Y159.397 E7.84097
G1 X108.982 Y159.671 E7.8662
G1 X108.492 Y159.815 E7.88349
G1 X107.351 Y160.105 E7.92336
G1 X106.62 Y160.249 E7.94858
G1 X105.719 Y160.319 E7.97918
G1 X105.087 Y160.327 E8.00058
G0 F810 X104.532 Y160.333
M204 S2038
G0 F5454 X104.524 Y159.613
M204 S815
G1 F1050 E8.01937
G1 F900 X103.818 Y159.581 E8.0433
G1 X102.95 Y159.43 E8.07313
G1 X101.779 Y159.14 E8.11398
G1 X101.104 Y158.932 E8.1379
G1 X100.331 Y158.583 E8.16661
G1 X99.139 Y157.944 E8.21241
G1 X98.536 Y157.575 E8.23634
G1 X97.944 Y157.11 E8.26183
G1 X97.292 Y156.531 E8.29136
G1 X96.791 Y156.033 E8.31527
G1 X96.347 Y155.478 E8.33934
G1 X95.561 Y154.371 E8.38531
G1 X95.185 Y153.772 E8.40925
G1 X94.76 Y152.822 E8.44449
G1 X94.319 Y151.564 E8.48963
G1 X94.124 Y150.886 E8.51351
G1 X94.015 Y150.267 E8.5348
G1 X93.91 Y149.419 E8.56373
G1 X93.863 Y148.714 E8.58765
G1 X93.875 Y148.263 E8.60293
G1 X93.928 Y147.415 E8.6317
G1 X94.079 Y146.389 E8.66681
G1 X94.29 Y145.483 E8.69831
G1 X94.489 Y144.805 E8.72223
G1 X94.634 Y144.435 E8.73569
G1 X94.924 Y143.76 E8.76056
G1 X95.239 Y143.128 E8.78447
G1 X95.519 Y142.682 E8.8023
G1 X96.169 Y141.739 E8.84108
G1 X96.602 Y141.181 E8.865
G1 X97.326 Y140.475 E8.89923
G1 X98.557 Y139.455 E8.95336
G1 X99.125 Y139.036 E8.97726
G1 X99.737 Y138.684 E9.00117
G1 X100.07 Y138.529 E9.0136
G1 X101.066 Y138.1 E9.05032
G1 X101.729 Y137.858 E9.07422
G1 X102.44 Y137.688 E9.09897
G1 X103.687 Y137.466 E9.14186
G1 X104.389 Y137.381 E9.1658
G1 X105.187 Y137.382 E9.19282
G1 X106.321 Y137.456 E9.2313
G1 X107.022 Y137.542 E9.25521
G1 X107.844 Y137.749 E9.28391
G1 X109.016 Y138.13 E9.32564
G1 X109.674 Y138.386 E9.34955
G1 X110.394 Y138.772 E9.37721
G1 X111.383 Y139.39 E9.41669
G1 X111.96 Y139.798 E9.44062
G1 X112.508 Y140.29 E9.46556
G1 X113.282 Y141.071 E9.50279
G1 X113.75 Y141.6 E9.5267
G1 X114.267 Y142.365 E9.55796
G1 X114.959 Y143.575 E9.60516
G1 X115.274 Y144.207 E9.62907
G1 X115.538 Y144.944 E9.65558
G1 X115.831 Y145.96 E9.69138
G1 X115.988 Y146.649 E9.71531
G1 X116.061 Y147.276 E9.73668
G1 X116.119 Y148.15 E9.76634
G1 X116.103 Y149.176 E9.80108
G1 X116.013 Y150.087 E9.83208
G1 X115.904 Y150.785 E9.856
G1 X115.73 Y151.426 E9.87848
G1 X115.364 Y152.537 E9.91809
G1 X115.105 Y153.195 E9.94203
G1 X114.799 Y153.777 E9.9643
G1 X114.306 Y154.605 E9.99693
G1 X113.911 Y155.191 E10.02085
G1 X113.607 Y155.559 E10.03702
G1 X113.03 Y156.208 E10.06642
G1 X112.532 Y156.708 E10.09031
G1 X112.012 Y157.127 E10.11292
G1 X110.945 Y157.895 E10.15744
G1 X110.35 Y158.274 E10.18132
G1 X109.898 Y158.504 E10.19849
G1 X109.376 Y158.743 E10.21793
G1 X108.718 Y159 E10.24185
G1 X108.315 Y159.117 E10.25606
G1 X107.174 Y159.407 E10.29592
G1 X106.481 Y159.542 E10.31983
G1 X105.711 Y159.599 E10.34597
G1 X105.079 Y159.607 E10.36737
G0 F810 X104.524 Y159.613
M204 S2038
G0 F5454 X104.515 Y158.893
M204 S815
G1 F1050 E10.38616
G1 F900 X103.852 Y158.86 E10.40864
G1 X103.123 Y158.731 E10.43371
G1 X101.952 Y158.441 E10.47455
G1 X101.318 Y158.243 E10.49704
G1 X100.671 Y157.948 E10.52112
G1 X99.479 Y157.309 E10.56691
G1 X98.914 Y156.961 E10.58938
G1 X98.422 Y156.571 E10.61064
G1 X97.77 Y155.992 E10.64016
G1 X97.3 Y155.522 E10.66267
G1 X96.934 Y155.061 E10.6826
G1 X96.148 Y153.954 E10.72857
G1 X95.797 Y153.39 E10.75106
G1 X95.44 Y152.584 E10.78091
G1 X94.999 Y151.326 E10.82604
G1 X94.817 Y150.687 E10.84854
G1 X94.73 Y150.178 E10.86602
G1 X94.625 Y149.33 E10.89495
G1 X94.583 Y148.667 E10.91745
G1 X94.594 Y148.308 E10.92961
G1 X94.647 Y147.46 E10.95838
G1 X94.78 Y146.552 E10.98945
G1 X94.991 Y145.646 E11.02095
G1 X95.295 Y144.719 E11.05398
G1 X95.585 Y144.044 E11.07885
G1 X95.884 Y143.451 E11.10134
G1 X96.112 Y143.09 E11.1158
G1 X96.762 Y142.147 E11.15458
G1 X97.171 Y141.624 E11.17706
G1 X97.785 Y141.03 E11.20598
G1 X99.016 Y140.01 E11.26011
G1 X99.552 Y139.617 E11.28261
G1 X100.354 Y139.19 E11.31338
G1 X101.35 Y138.761 E11.3501
G1 X101.975 Y138.536 E11.37259
G1 X102.567 Y138.396 E11.39319
G1 X103.814 Y138.174 E11.43607
G1 X104.473 Y138.098 E11.45853
G1 X105.14 Y138.101 E11.48112
G1 X106.274 Y138.175 E11.5196
G1 X106.933 Y138.258 E11.54208
G1 X107.622 Y138.433 E11.56615
G1 X108.794 Y138.814 E11.60788
G1 X109.412 Y139.057 E11.63037
G1 X110.012 Y139.383 E11.65349
G1 X111.001 Y140.001 E11.69297
G1 X111.542 Y140.386 E11.71546
G1 X111.997 Y140.796 E11.73619
G1 X112.771 Y141.577 E11.77342
G1 X113.209 Y142.076 E11.7959
G1 X113.642 Y142.723 E11.82226
G1 X114.334 Y143.933 E11.86946
G1 X114.628 Y144.528 E11.89193
G1 X114.846 Y145.143 E11.91402
G1 X115.139 Y146.159 E11.94983
G1 X115.284 Y146.808 E11.97234
G1 X115.343 Y147.323 E11.98989
G1 X115.401 Y148.197 E12.01955
G1 X115.386 Y149.106 E12.05033
G1 X115.296 Y150.017 E12.08133
G1 X115.191 Y150.673 E12.10382
G1 X115.046 Y151.201 E12.12236
G1 X114.68 Y152.312 E12.16197
G1 X114.434 Y152.929 E12.18446
G1 X114.18 Y153.409 E12.20285
G1 X113.687 Y154.237 E12.23548
G1 X113.313 Y154.786 E12.25797
G1 X113.069 Y155.081 E12.27093
G1 X112.492 Y155.73 E12.30033
G1 X112.022 Y156.199 E12.32282
G1 X111.592 Y156.542 E12.34144
G1 X110.525 Y157.31 E12.38595
G1 X109.963 Y157.665 E12.40846
G1 X109.598 Y157.849 E12.4223
G1 X109.076 Y158.088 E12.44174
G1 X108.138 Y158.419 E12.47542
G1 X106.997 Y158.709 E12.51528
G1 X106.344 Y158.833 E12.53778
G1 X105.702 Y158.879 E12.55958
G1 X105.07 Y158.887 E12.58098
G0 F810 X104.515 Y158.893
M204 S2038
G0 F5454 X104.507 Y158.173
M204 S815
G1 F1050 E12.59977
G1 F900 X103.888 Y158.14 E12.62076
G1 X103.296 Y158.032 E12.64113
G1 X102.125 Y157.742 E12.68198
G1 X101.535 Y157.555 E12.70294
G1 X101.011 Y157.313 E12.72248
G1 X99.819 Y156.674 E12.76827
G1 X99.293 Y156.347 E12.78924
G1 X98.9 Y156.033 E12.80628
G1 X98.248 Y155.454 E12.8358
G1 X97.812 Y155.014 E12.85677
G1 X97.521 Y154.644 E12.87271
G1 X96.735 Y153.537 E12.91868
G1 X96.41 Y153.01 E12.93964
G1 X96.119 Y152.346 E12.96419
G1 X95.678 Y151.088 E13.00933
G1 X95.512 Y150.491 E13.03031
G1 X95.444 Y150.09 E13.04408
G1 X95.339 Y149.242 E13.07301
G1 X95.312 Y148.353 E13.10313
G1 X95.365 Y147.505 E13.13189
G1 X95.481 Y146.715 E13.15893
G1 X95.692 Y145.809 E13.19043
G1 X95.957 Y145.003 E13.21915
G1 X96.247 Y144.328 E13.24403
G1 X96.527 Y143.776 E13.26499
G1 X96.705 Y143.499 E13.27613
G1 X97.355 Y142.556 E13.31491
G1 X97.739 Y142.07 E13.33589
G1 X98.244 Y141.584 E13.35962
G1 X99.475 Y140.564 E13.41375
G1 X99.977 Y140.2 E13.43474
G1 X100.639 Y139.852 E13.46006
G1 X101.635 Y139.423 E13.49678
G1 X102.219 Y139.215 E13.51777
G1 X102.693 Y139.105 E13.53425
G1 X103.94 Y138.883 E13.57714
G1 X104.555 Y138.814 E13.59809
G1 X105.094 Y138.819 E13.61634
G1 X106.228 Y138.893 E13.65482
G1 X106.842 Y138.973 E13.67578
G1 X107.399 Y139.118 E13.69527
G1 X108.571 Y139.499 E13.737
G1 X109.146 Y139.728 E13.75795
G1 X109.631 Y139.993 E13.77667
G1 X110.62 Y140.611 E13.81615
G1 X111.123 Y140.973 E13.83714
G1 X111.485 Y141.303 E13.85372
G1 X112.259 Y142.084 E13.89095
G1 X112.666 Y142.551 E13.91193
G1 X113.017 Y143.08 E13.93342
G1 X113.709 Y144.29 E13.98062
G1 X113.981 Y144.846 E14.00158
G1 X114.154 Y145.343 E14.01939
G1 X114.447 Y146.359 E14.0552
G1 X114.58 Y146.964 E14.07617
G1 X114.624 Y147.371 E14.09003
G1 X114.682 Y148.245 E14.11969
G1 X114.67 Y149.035 E14.14644
